;START_OF_HEADER
;HEADER_VERSION:0.1
;FLAVOR:Griffin
;GENERATOR.NAME:Cura_SteamEngine
;GENERATOR.VERSION:4.8.0
;GENERATOR.BUILD_DATE:2020-11-10
;TARGET_MACHINE.NAME:Ultimaker 3
;EXTRUDER_TRAIN.0.INITIAL_TEMPERATURE:265
;EXTRUDER_TRAIN.0.MATERIAL.VOLUME_USED:38428
;EXTRUDER_TRAIN.0.MATERIAL.GUID:24e7f5e4-ee4a-46b8-8671-953334553ea0
;EXTRUDER_TRAIN.0.NOZZLE.DIAMETER:0.4
;EXTRUDER_TRAIN.0.NOZZLE.NAME:AA 0.4
;BUILD_PLATE.TYPE:glass
;BUILD_PLATE.INITIAL_TEMPERATURE:80
;PRINT.TIME:15713
;PRINT.GROUPS:1
;PRINT.SIZE.MIN.X:9
;PRINT.SIZE.MIN.Y:6
;PRINT.SIZE.MIN.Z:0.27
;PRINT.SIZE.MAX.X:192.312
;PRINT.SIZE.MAX.Y:167.215
;PRINT.SIZE.MAX.Z:4.87
;END_OF_HEADER
;Generated with Cura_SteamEngine 4.8.0
T0
M82 ;absolute extrusion mode

G92 E0
M109 S265
G0 F15000 X9 Y6 Z2
G280
G1 F1500 E-6.5
;LAYER_COUNT:24
;LAYER:0
M107
M204 S625
M205 X6 Y6
G1 F600 Z2.27
G0 F7500 X43.195 Y57.575 Z2.27
M204 S500
M205 X5 Y5
;TYPE:SKIRT
G1 F600 Z0.27
G1 F1500 E0
G1 F1800 X43.713 Y57.315 E0.0103
G1 X44.733 Y56.913 E0.02979
G1 X45.211 Y56.733 E0.03887
G1 X47.735 Y55.7 E0.08735
G1 X50.253 Y54.584 E0.13631
G1 X52.713 Y53.412 E0.18475
G1 X55.139 Y52.167 E0.23322
G1 X57.542 Y50.85 E0.28193
G1 X59.933 Y49.45 E0.33118
G1 X61.599 Y48.412 E0.36607
G1 X61.87 Y48.25 E0.37169
G1 X62.324 Y48.025 E0.38069
G1 X62.807 Y47.874 E0.38969
G1 X63.419 Y47.797 E0.40065
G1 X63.911 Y47.785 E0.4094
G1 X168.919 Y47.785 E2.27602
G1 X169.624 Y47.796 E2.28856
G1 X170.128 Y47.844 E2.29755
G1 X170.618 Y47.971 E2.30655
G1 X171.256 Y48.272 E2.31909
G1 X172.415 Y48.985 E2.34328
G1 X172.688 Y49.158 E2.34903
G1 X175.065 Y50.57 E2.39817
G1 X177.431 Y51.887 E2.44631
G1 X179.907 Y53.175 E2.49592
G1 X182.304 Y54.338 E2.54328
G1 X184.846 Y55.483 E2.59284
G1 X187.398 Y56.547 E2.64199
G1 X188.923 Y57.132 E2.67102
G1 X189.407 Y57.327 E2.6803
G1 X189.86 Y57.552 E2.68929
G1 X190.391 Y57.951 E2.7011
G1 X190.861 Y58.403 E2.71269
G1 X191.388 Y58.944 E2.72611
G1 X191.711 Y59.334 E2.73511
G1 X191.969 Y59.77 E2.74412
G1 X192.154 Y60.24 E2.7531
G1 X192.264 Y60.735 E2.76211
G1 X192.3 Y61.291 E2.77202
G1 X192.305 Y61.739 E2.77998
G1 X192.306 Y153.041 E4.40296
G1 X192.311 Y153.107 E4.40414
G1 X192.312 Y153.671 E4.41416
G1 X192.305 Y153.762 E4.41579
G1 X192.305 Y154.841 E4.43497
G1 X192.294 Y155.545 E4.44748
G1 X192.246 Y156.049 E4.45648
G1 X192.119 Y156.54 E4.4655
G1 X191.917 Y157.004 E4.47449
G1 X191.645 Y157.431 E4.48349
G1 X191.239 Y157.874 E4.49417
G1 X190.573 Y158.477 E4.51014
G1 X188.543 Y160.369 E4.55947
G1 X186.588 Y162.3 E4.60832
G1 X184.695 Y164.274 E4.65694
G1 X183.931 Y165.127 E4.67729
G1 X183.834 Y165.22 E4.67968
G1 X182.976 Y166.158 E4.70228
G1 X182.606 Y166.504 E4.71128
G1 X182.186 Y166.787 E4.72029
G1 X181.727 Y167 E4.72928
G1 X181.24 Y167.139 E4.73828
G1 X180.676 Y167.203 E4.74837
G1 X180.081 Y167.215 E4.75895
G1 X53.142 Y167.215 E7.01542
G1 X52.438 Y167.205 E7.02793
G1 X51.934 Y167.158 E7.03693
G1 X51.444 Y167.032 E7.04592
G1 X50.979 Y166.83 E7.05494
G1 X50.552 Y166.558 E7.06393
G1 X50.105 Y166.15 E7.07469
G1 X49.393 Y165.364 E7.09355
G1 X47.501 Y163.334 E7.14287
G1 X45.57 Y161.379 E7.19172
G1 X43.588 Y159.479 E7.24052
G1 X42.862 Y158.826 E7.25788
G1 X41.851 Y157.893 E7.28234
G1 X41.507 Y157.521 E7.29134
G1 X41.226 Y157.1 E7.30034
G1 X41.015 Y156.64 E7.30934
G1 X40.863 Y156.068 E7.31986
G1 X40.79 Y155.407 E7.33168
G1 X40.785 Y154.998 E7.33895
G1 X40.785 Y61.837 E8.99498
G1 X40.795 Y61.135 E9.00746
G1 X40.842 Y60.631 E9.01646
G1 X40.968 Y60.141 E9.02545
G1 X41.17 Y59.676 E9.03446
G1 X41.442 Y59.249 E9.04346
G1 X41.8 Y58.839 E9.05314
G1 X42.16 Y58.473 E9.06226
G1 X42.641 Y58.006 E9.07418
G1 X43.195 Y57.575 E9.08666
M204 S625
M205 X6 Y6
G1 F1500 E2.58666
;MESH:Bodenplatte_unten.stl
G0 F7500 X45.07 Y60.763
G0 X45.125 Y60.895
M204 S500
M205 X5 Y5
;TYPE:WALL-INNER
G1 F1500 E9.08666
G1 F1800 X45.195 Y60.895 E9.08772
G1 X45.14 Y60.923
G1 X45.053 Y60.967 E9.08912
G1 X45.125 Y60.895 E9.08923
M204 S625
M205 X6 Y6
G0 F7500 X187.896 Y60.895
M204 S500
M205 X5 Y5
G1 F1800 X187.965 Y60.895 E9.09028
G1 X187.998 Y60.937 E9.0911
G1 X187.955 Y60.92
G1 X187.896 Y60.895 E9.09112
M204 S625
M205 X6 Y6
G0 F7500 X186.545 Y60.59
G0 X185.806 Y60.69
G0 X98.089 Y112.454
M204 S500
M205 X5 Y5
G1 F1800 X98.799 Y111.909 E9.10475
G1 X99.341 Y111.199 E9.11836
G1 X99.684 Y110.375 E9.13196
G1 X99.8 Y109.49 E9.14556
G1 X99.684 Y108.605 E9.15916
G1 X99.341 Y107.781 E9.17276
G1 X98.799 Y107.071 E9.18637
G1 X98.089 Y106.526 E9.20001
G1 X97.265 Y106.186 E9.21359
G1 X96.38 Y106.07 E9.22719
G1 X95.494 Y106.186 E9.24081
G1 X94.669 Y106.528 E9.25441
G1 X93.961 Y107.071 E9.26801
G1 X93.418 Y107.779 E9.2816
G1 X93.075 Y108.605 E9.29523
G1 X92.96 Y109.49 E9.30883
G1 X93.075 Y110.375 E9.32243
G1 X93.418 Y111.201 E9.33605
G1 X93.961 Y111.909 E9.34965
G1 X94.669 Y112.452 E9.36324
G1 X95.494 Y112.794 E9.37685
G1 X96.38 Y112.91 E9.39046
G1 X97.265 Y112.794 E9.40406
G1 X98.089 Y112.454 E9.41765
M204 S625
M205 X6 Y6
G0 F7500 X97.908 Y112.139
M204 S500
M205 X5 Y5
G1 F1800 X98.542 Y111.652 E9.42983
G1 X99.027 Y111.018 E9.44199
G1 X99.333 Y110.281 E9.45415
G1 X99.437 Y109.49 E9.4663
G1 X99.333 Y108.699 E9.47846
G1 X99.027 Y107.962 E9.49062
G1 X98.542 Y107.328 E9.50278
G1 X97.908 Y106.841 E9.51496
G1 X97.171 Y106.537 E9.52711
G1 X96.38 Y106.433 E9.53927
G1 X95.588 Y106.537 E9.55144
G1 X94.851 Y106.842 E9.56359
G1 X94.218 Y107.328 E9.57575
G1 X93.732 Y107.961 E9.58791
G1 X93.426 Y108.699 E9.60008
G1 X93.323 Y109.49 E9.61223
G1 X93.426 Y110.281 E9.62439
G1 X93.732 Y111.019 E9.63656
G1 X94.218 Y111.652 E9.64872
G1 X94.851 Y112.138 E9.66088
G1 X95.588 Y112.443 E9.67303
G1 X96.38 Y112.547 E9.6852
G1 X97.171 Y112.443 E9.69736
G1 X97.908 Y112.139 E9.70951
M204 S625
M205 X6 Y6
G0 F7500 X97.712 Y111.798
M204 S500
M205 X5 Y5
;TYPE:WALL-OUTER
G1 F1800 X98.264 Y111.374 E9.72188
G1 X98.686 Y110.822 E9.73423
G1 X98.953 Y110.179 E9.74661
G1 X99.044 Y109.49 E9.75896
G1 X98.953 Y108.801 E9.77132
G1 X98.686 Y108.158 E9.78369
G1 X98.264 Y107.606 E9.79604
G1 X97.712 Y107.182 E9.80842
G1 X97.069 Y106.917 E9.82078
G1 X96.38 Y106.826 E9.83313
G1 X95.69 Y106.917 E9.8455
G1 X95.048 Y107.183 E9.85786
G1 X94.496 Y107.606 E9.87022
G1 X94.073 Y108.158 E9.88258
G1 X93.806 Y108.801 E9.89496
G1 X93.716 Y109.49 E9.90731
G1 X93.806 Y110.179 E9.91966
G1 X94.073 Y110.822 E9.93204
G1 X94.496 Y111.374 E9.9444
G1 X95.048 Y111.797 E9.95676
G1 X95.69 Y112.063 E9.96911
G1 X96.38 Y112.154 E9.98149
G1 X97.069 Y112.063 E9.99384
G1 X97.712 Y111.798 E10.0062
M204 S625
M205 X6 Y6
G0 F7500 X97.87 Y111.677
G0 X98.15 Y112.043
G0 X98.93 Y110.962
G0 X99.225 Y110.25
G0 X99.326 Y109.49
G0 X99.225 Y108.73
G0 X76.344 Y56.927
G0 X76.249 Y56.205
G0 X76.732 Y53.892
M204 S500
M205 X5 Y5
;TYPE:WALL-INNER
G1 F1800 X76.213 Y54.569 E10.0192
G1 X75.885 Y55.359 E10.03223
G1 X75.775 Y56.205 E10.04523
G1 X75.885 Y57.052 E10.05825
G1 X76.213 Y57.841 E10.07126
G1 X76.732 Y58.518 E10.08426
G1 X77.409 Y59.037 E10.09726
G1 X78.198 Y59.365 E10.11028
G1 X79.045 Y59.475 E10.12329
G1 X79.891 Y59.365 E10.13629
G1 X80.681 Y59.037 E10.14932
G1 X81.358 Y58.518 E10.16232
G1 X81.879 Y57.841 E10.17534
G1 X82.204 Y57.052 E10.18834
G1 X82.315 Y56.205 E10.20135
G1 X82.204 Y55.359 E10.21436
G1 X81.879 Y54.571 E10.22734
G1 X81.358 Y53.892 E10.24038
G1 X80.679 Y53.372 E10.25341
G1 X79.891 Y53.046 E10.26641
G1 X79.045 Y52.935 E10.27941
G1 X78.198 Y53.046 E10.29242
G1 X77.409 Y53.374 E10.30544
G1 X76.732 Y53.892 E10.31843
M204 S625
M205 X6 Y6
G0 F7500 X76.989 Y54.149
M204 S500
M205 X5 Y5
G1 F1800 X76.527 Y54.751 E10.32999
G1 X76.236 Y55.453 E10.34157
G1 X76.138 Y56.205 E10.35313
G1 X76.236 Y56.958 E10.3647
G1 X76.527 Y57.659 E10.37626
G1 X76.989 Y58.261 E10.38782
G1 X77.591 Y58.723 E10.39939
G1 X78.292 Y59.014 E10.41095
G1 X79.045 Y59.112 E10.42252
G1 X79.797 Y59.014 E10.43407
G1 X80.499 Y58.723 E10.44565
G1 X81.101 Y58.261 E10.45722
G1 X81.564 Y57.659 E10.46879
G1 X81.853 Y56.958 E10.48034
G1 X81.952 Y56.205 E10.49191
G1 X81.853 Y55.453 E10.50347
G1 X81.564 Y54.752 E10.51502
G1 X81.101 Y54.149 E10.52661
G1 X80.498 Y53.687 E10.53818
G1 X79.797 Y53.397 E10.54974
G1 X79.045 Y53.298 E10.56129
G1 X78.292 Y53.397 E10.57287
G1 X77.591 Y53.688 E10.58443
G1 X76.989 Y54.149 E10.59598
M204 S625
M205 X6 Y6
G0 F7500 X77.267 Y54.427
M204 S500
M205 X5 Y5
;TYPE:WALL-OUTER
G1 F1800 X76.868 Y54.948 E10.60765
G1 X76.616 Y55.555 E10.61933
G1 X76.531 Y56.205 E10.63099
G1 X76.616 Y56.856 E10.64266
G1 X76.868 Y57.462 E10.65432
G1 X77.267 Y57.983 E10.66599
G1 X77.788 Y58.382 E10.67765
G1 X78.394 Y58.634 E10.68932
G1 X79.045 Y58.719 E10.70099
G1 X79.695 Y58.634 E10.71264
G1 X80.302 Y58.382 E10.72432
G1 X80.823 Y57.983 E10.73599
G1 X81.223 Y57.462 E10.74767
G1 X81.473 Y56.856 E10.75932
G1 X81.559 Y56.205 E10.77099
G1 X81.473 Y55.555 E10.78265
G1 X81.223 Y54.948 E10.79432
G1 X80.823 Y54.427 E10.80599
G1 X80.302 Y54.028 E10.81766
G1 X79.695 Y53.777 E10.82933
G1 X79.045 Y53.691 E10.84099
G1 X78.394 Y53.777 E10.85266
G1 X77.788 Y54.029 E10.86433
G1 X77.267 Y54.427 E10.87598
M204 S625
M205 X6 Y6
G0 F7500 X77.146 Y54.585
G0 X76.78 Y54.303
G0 X77.646 Y53.785
G0 X78.323 Y53.505
G0 X114.232 Y53.892
M204 S500
M205 X5 Y5
;TYPE:WALL-INNER
G1 F1800 X113.713 Y54.569 E10.88898
G1 X113.385 Y55.359 E10.90201
G1 X113.275 Y56.205 E10.91501
G1 X113.385 Y57.052 E10.92803
G1 X113.713 Y57.841 E10.94104
G1 X114.232 Y58.518 E10.95404
G1 X114.909 Y59.037 E10.96704
G1 X115.698 Y59.365 E10.98006
G1 X116.545 Y59.475 E10.99307
G1 X117.391 Y59.365 E11.00607
G1 X118.181 Y59.037 E11.0191
G1 X118.858 Y58.518 E11.0321
G1 X119.379 Y57.841 E11.04512
G1 X119.704 Y57.052 E11.05812
G1 X119.815 Y56.205 E11.07113
G1 X119.704 Y55.359 E11.08414
G1 X119.379 Y54.571 E11.09712
G1 X118.858 Y53.892 E11.11016
G1 X118.179 Y53.372 E11.12319
G1 X117.391 Y53.046 E11.13619
G1 X116.545 Y52.935 E11.14919
G1 X115.698 Y53.046 E11.1622
G1 X114.909 Y53.374 E11.17522
G1 X114.232 Y53.892 E11.18821
M204 S625
M205 X6 Y6
G0 F7500 X114.489 Y54.149
M204 S500
M205 X5 Y5
G1 F1800 X114.027 Y54.751 E11.19977
G1 X113.736 Y55.453 E11.21135
G1 X113.638 Y56.205 E11.22291
G1 X113.736 Y56.958 E11.23448
G1 X114.027 Y57.659 E11.24604
G1 X114.489 Y58.261 E11.2576
G1 X115.091 Y58.723 E11.26917
G1 X115.792 Y59.014 E11.28073
G1 X116.545 Y59.112 E11.2923
G1 X117.297 Y59.014 E11.30385
G1 X117.999 Y58.723 E11.31543
G1 X118.601 Y58.261 E11.327
G1 X119.064 Y57.659 E11.33857
G1 X119.353 Y56.958 E11.35012
G1 X119.452 Y56.205 E11.36169
G1 X119.353 Y55.453 E11.37325
G1 X119.064 Y54.752 E11.3848
G1 X118.601 Y54.149 E11.39638
G1 X117.998 Y53.687 E11.40796
G1 X117.297 Y53.397 E11.41952
G1 X116.545 Y53.298 E11.43107
G1 X115.792 Y53.397 E11.44265
G1 X115.091 Y53.688 E11.45421
G1 X114.489 Y54.149 E11.46576
M204 S625
M205 X6 Y6
G0 F7500 X114.767 Y54.427
M204 S500
M205 X5 Y5
;TYPE:WALL-OUTER
G1 F1800 X114.368 Y54.948 E11.47743
G1 X114.116 Y55.555 E11.48911
G1 X114.031 Y56.205 E11.50076
G1 X114.116 Y56.856 E11.51244
G1 X114.368 Y57.462 E11.5241
G1 X114.767 Y57.983 E11.53577
G1 X115.288 Y58.382 E11.54743
G1 X115.894 Y58.634 E11.5591
G1 X116.545 Y58.719 E11.57077
G1 X117.195 Y58.634 E11.58242
G1 X117.802 Y58.382 E11.5941
G1 X118.323 Y57.983 E11.60577
G1 X118.723 Y57.462 E11.61745
G1 X118.973 Y56.856 E11.6291
G1 X119.059 Y56.205 E11.64077
G1 X118.973 Y55.555 E11.65243
G1 X118.723 Y54.948 E11.6641
G1 X118.323 Y54.427 E11.67577
G1 X117.802 Y54.028 E11.68744
G1 X117.195 Y53.777 E11.69911
G1 X116.545 Y53.691 E11.71077
G1 X115.894 Y53.777 E11.72244
G1 X115.288 Y54.029 E11.73411
G1 X114.767 Y54.427 E11.74576
M204 S625
M205 X6 Y6
G0 F7500 X114.646 Y54.585
G0 X114.28 Y54.303
G0 X115.146 Y53.785
G0 X115.823 Y53.505
G0 X151.732 Y53.892
M204 S500
M205 X5 Y5
;TYPE:WALL-INNER
G1 F1800 X151.213 Y54.569 E11.75876
G1 X150.885 Y55.359 E11.77179
G1 X150.775 Y56.205 E11.78479
G1 X150.885 Y57.052 E11.7978
G1 X151.213 Y57.841 E11.81082
G1 X151.732 Y58.518 E11.82382
G1 X152.409 Y59.037 E11.83682
G1 X153.198 Y59.365 E11.84984
G1 X154.045 Y59.475 E11.86285
G1 X154.891 Y59.365 E11.87585
G1 X155.681 Y59.037 E11.88888
G1 X156.358 Y58.518 E11.90188
G1 X156.879 Y57.841 E11.9149
G1 X157.204 Y57.052 E11.9279
G1 X157.315 Y56.205 E11.94091
G1 X157.204 Y55.359 E11.95391
G1 X156.879 Y54.571 E11.9669
G1 X156.358 Y53.892 E11.97994
G1 X155.679 Y53.372 E11.99297
G1 X154.891 Y53.046 E12.00597
G1 X154.045 Y52.935 E12.01897
G1 X153.198 Y53.046 E12.03198
G1 X152.409 Y53.374 E12.045
G1 X151.732 Y53.892 E12.05799
M204 S625
M205 X6 Y6
G0 F7500 X151.989 Y54.149
M204 S500
M205 X5 Y5
G1 F1800 X151.527 Y54.751 E12.06955
G1 X151.236 Y55.453 E12.08113
G1 X151.138 Y56.205 E12.09269
G1 X151.236 Y56.958 E12.10426
G1 X151.527 Y57.659 E12.11582
G1 X151.989 Y58.261 E12.12738
G1 X152.591 Y58.723 E12.13894
G1 X153.292 Y59.014 E12.15051
G1 X154.045 Y59.112 E12.16208
G1 X154.797 Y59.014 E12.17363
G1 X155.499 Y58.723 E12.18521
G1 X156.101 Y58.261 E12.19677
G1 X156.564 Y57.659 E12.20835
G1 X156.853 Y56.958 E12.2199
G1 X156.952 Y56.205 E12.23147
G1 X156.853 Y55.453 E12.24303
G1 X156.564 Y54.752 E12.25458
G1 X156.101 Y54.149 E12.26616
G1 X155.498 Y53.687 E12.27774
G1 X154.797 Y53.397 E12.2893
G1 X154.045 Y53.298 E12.30085
G1 X153.292 Y53.397 E12.31243
G1 X152.591 Y53.688 E12.32399
G1 X151.989 Y54.149 E12.33554
M204 S625
M205 X6 Y6
G0 F7500 X152.267 Y54.427
M204 S500
M205 X5 Y5
;TYPE:WALL-OUTER
G1 F1800 X151.868 Y54.948 E12.34721
G1 X151.616 Y55.555 E12.35889
G1 X151.531 Y56.205 E12.37054
G1 X151.616 Y56.856 E12.38221
G1 X151.868 Y57.462 E12.39388
G1 X152.267 Y57.983 E12.40555
G1 X152.788 Y58.382 E12.41721
G1 X153.394 Y58.634 E12.42888
G1 X154.045 Y58.719 E12.44055
G1 X154.695 Y58.634 E12.4522
G1 X155.302 Y58.382 E12.46388
G1 X155.823 Y57.983 E12.47555
G1 X156.223 Y57.462 E12.48723
G1 X156.473 Y56.856 E12.49888
G1 X156.559 Y56.205 E12.51055
G1 X156.473 Y55.555 E12.52221
G1 X156.223 Y54.948 E12.53388
G1 X155.823 Y54.427 E12.54555
G1 X155.302 Y54.028 E12.55722
G1 X154.695 Y53.777 E12.56889
G1 X154.045 Y53.691 E12.58055
G1 X153.394 Y53.777 E12.59222
G1 X152.788 Y54.029 E12.60389
G1 X152.267 Y54.427 E12.61554
M204 S625
M205 X6 Y6
G0 F7500 X152.146 Y54.585
G0 X151.78 Y54.303
G0 X151.344 Y55.483
G0 X151.249 Y56.205
G0 X151.344 Y56.927
G0 X174.85 Y106.937
G0 X175.465 Y107.408
G0 X175.93 Y108.018
G0 X176.225 Y108.73
G0 X176.326 Y109.49
G0 X176.225 Y110.25
G0 X175.089 Y112.454
M204 S500
M205 X5 Y5
;TYPE:WALL-INNER
G1 F1800 X175.799 Y111.909 E12.62918
G1 X176.341 Y111.199 E12.64279
G1 X176.684 Y110.375 E12.65639
G1 X176.8 Y109.49 E12.66999
G1 X176.684 Y108.605 E12.68359
G1 X176.341 Y107.781 E12.69719
G1 X175.799 Y107.071 E12.7108
G1 X175.089 Y106.526 E12.72443
G1 X174.265 Y106.186 E12.73802
G1 X173.38 Y106.07 E12.75162
G1 X172.494 Y106.186 E12.76523
G1 X171.669 Y106.528 E12.77884
G1 X170.961 Y107.071 E12.79243
G1 X170.418 Y107.779 E12.80603
G1 X170.075 Y108.605 E12.81965
G1 X169.96 Y109.49 E12.83325
G1 X170.075 Y110.375 E12.84685
G1 X170.418 Y111.201 E12.86048
G1 X170.961 Y111.909 E12.87407
G1 X171.669 Y112.452 E12.88767
G1 X172.494 Y112.794 E12.90127
G1 X173.38 Y112.91 E12.91489
G1 X174.265 Y112.794 E12.92849
G1 X175.089 Y112.454 E12.94207
M204 S625
M205 X6 Y6
G0 F7500 X174.908 Y112.139
M204 S500
M205 X5 Y5
G1 F1800 X175.542 Y111.652 E12.95425
G1 X176.027 Y111.018 E12.96641
G1 X176.333 Y110.281 E12.97857
G1 X176.437 Y109.49 E12.99073
G1 X176.333 Y108.699 E13.00288
G1 X176.027 Y107.962 E13.01504
G1 X175.542 Y107.328 E13.02721
G1 X174.908 Y106.841 E13.03939
G1 X174.171 Y106.537 E13.05153
G1 X173.38 Y106.433 E13.06369
G1 X172.588 Y106.537 E13.07586
G1 X171.851 Y106.842 E13.08801
G1 X171.218 Y107.328 E13.10017
G1 X170.732 Y107.961 E13.11233
G1 X170.426 Y108.699 E13.1245
G1 X170.323 Y109.49 E13.13666
G1 X170.426 Y110.281 E13.14881
G1 X170.732 Y111.019 E13.16099
G1 X171.218 Y111.652 E13.17315
G1 X171.851 Y112.138 E13.1853
G1 X172.588 Y112.443 E13.19746
G1 X173.38 Y112.547 E13.20963
G1 X174.171 Y112.443 E13.22178
G1 X174.908 Y112.139 E13.23393
M204 S625
M205 X6 Y6
G0 F7500 X174.712 Y111.798
M204 S500
M205 X5 Y5
;TYPE:WALL-OUTER
G1 F1800 X175.264 Y111.374 E13.2463
G1 X175.686 Y110.822 E13.25866
G1 X175.953 Y110.179 E13.27103
G1 X176.044 Y109.49 E13.28339
G1 X175.953 Y108.801 E13.29574
G1 X175.686 Y108.158 E13.30812
