;START_OF_HEADER
;HEADER_VERSION:0.1
;FLAVOR:Griffin
;GENERATOR.NAME:Cura_SteamEngine
;GENERATOR.VERSION:4.8.0
;GENERATOR.BUILD_DATE:2020-11-10
;TARGET_MACHINE.NAME:Ultimaker 3
;EXTRUDER_TRAIN.0.INITIAL_TEMPERATURE:265
;EXTRUDER_TRAIN.0.MATERIAL.VOLUME_USED:71234
;EXTRUDER_TRAIN.0.MATERIAL.GUID:24e7f5e4-ee4a-46b8-8671-953334553ea0
;EXTRUDER_TRAIN.0.NOZZLE.DIAMETER:0.4
;EXTRUDER_TRAIN.0.NOZZLE.NAME:AA 0.4
;BUILD_PLATE.TYPE:glass
;BUILD_PLATE.INITIAL_TEMPERATURE:80
;PRINT.TIME:29275
;PRINT.GROUPS:1
;PRINT.SIZE.MIN.X:2.601
;PRINT.SIZE.MIN.Y:2.01
;PRINT.SIZE.MIN.Z:0.27
;PRINT.SIZE.MAX.X:202.621
;PRINT.SIZE.MAX.Y:208.108
;PRINT.SIZE.MAX.Z:9.47
;END_OF_HEADER
;Generated with Cura_SteamEngine 4.8.0
T0
M82 ;absolute extrusion mode

G92 E0
M109 S265
G0 F15000 X9 Y6 Z2
G280
G1 F1500 E-6.5
;LAYER_COUNT:47
;LAYER:0
M107
M204 S625
M205 X6 Y6
G1 F600 Z2.27
G0 F7500 X36.432 Y13.155 Z2.27
M204 S500
M205 X5 Y5
;TYPE:SKIRT
G1 F600 Z0.27
G1 F1500 E0
G1 F1800 X36.558 Y12.665 E0.00899
G1 X36.76 Y12.2 E0.01801
G1 X37.032 Y11.773 E0.02701
G1 X37.44 Y11.326 E0.03776
G1 X38.219 Y10.621 E0.05644
G1 X40.241 Y8.735 E0.10559
G1 X42.216 Y6.788 E0.15489
G1 X44.066 Y4.856 E0.20244
G1 X44.76 Y4.086 E0.22087
G1 X45.695 Y3.073 E0.24537
G1 X46.067 Y2.729 E0.25438
G1 X46.488 Y2.448 E0.26337
G1 X46.948 Y2.236 E0.27238
G1 X47.57 Y2.077 E0.28379
G1 X48.179 Y2.015 E0.29467
G1 X48.588 Y2.01 E0.30194
G1 X175.54 Y2.01 E2.55864
G1 X176.241 Y2.02 E2.5711
G1 X176.745 Y2.067 E2.5801
G1 X177.235 Y2.193 E2.58909
G1 X177.7 Y2.395 E2.5981
G1 X178.127 Y2.667 E2.6071
G1 X178.573 Y3.074 E2.61784
G1 X179.193 Y3.758 E2.63425
G1 X181.029 Y5.729 E2.68213
G1 X182.984 Y7.712 E2.73163
G1 X184.965 Y9.61 E2.7804
G1 X185.845 Y10.401 E2.80143
G1 X186.851 Y11.328 E2.82575
G1 X187.195 Y11.7 E2.83476
G1 X187.477 Y12.121 E2.84376
G1 X187.689 Y12.581 E2.85277
G1 X187.825 Y13.068 E2.86175
G1 X187.884 Y13.589 E2.87107
G1 X187.895 Y14.148 E2.88101
G1 X187.895 Y76.165 E3.98343
G1 X187.935 Y78.962 E4.03315
G1 X188.05 Y81.677 E4.08146
G1 X188.244 Y84.418 E4.1303
G1 X188.512 Y87.123 E4.17862
G1 X188.862 Y89.858 E4.22763
G1 X189.285 Y92.547 E4.27602
G1 X189.789 Y95.261 E4.32509
G1 X190.359 Y97.909 E4.37324
G1 X191.009 Y100.564 E4.42183
G1 X191.745 Y103.236 E4.4711
G1 X192.535 Y105.818 E4.51909
G1 X193.418 Y108.434 E4.56817
G1 X194.368 Y111.011 E4.61699
G1 X195.39 Y113.556 E4.66575
G1 X196.469 Y116.036 E4.71382
G1 X197.642 Y118.537 E4.76293
G1 X198.878 Y120.993 E4.8118
G1 X200.163 Y123.371 E4.85985
G1 X201.556 Y125.786 E4.90941
G1 X202.078 Y126.648 E4.92732
G1 X202.172 Y126.809 E4.93064
G1 X202.392 Y127.265 E4.93964
G1 X202.538 Y127.75 E4.94864
G1 X202.61 Y128.38 E4.95991
G1 X202.621 Y129.125 E4.97316
G1 X202.621 Y196.447 E6.16987
G1 X202.611 Y197.175 E6.18281
G1 X202.564 Y197.679 E6.19181
G1 X202.438 Y198.17 E6.20082
G1 X202.237 Y198.635 E6.20983
G1 X201.965 Y199.062 E6.21883
G1 X201.63 Y199.441 E6.22782
G1 X201.239 Y199.763 E6.23682
G1 X200.802 Y200.019 E6.24582
G1 X199.918 Y200.359 E6.26266
G1 X178.589 Y207.699 E6.66363
G1 X177.854 Y207.939 E6.67737
G1 X177.362 Y208.058 E6.68637
G1 X176.788 Y208.102 E6.6966
G1 X176.346 Y208.108 E6.70446
G1 X29.594 Y208.108 E9.31312
G1 X28.928 Y208.099 E9.32496
G1 X28.423 Y208.052 E9.33397
G1 X28.011 Y207.952 E9.34151
G1 X26.925 Y207.611 E9.36175
G1 X5.394 Y200.383 E9.76547
G1 X4.773 Y200.166 E9.77716
G1 X4.17 Y199.883 E9.789
G1 X3.758 Y199.589 E9.798
G1 X3.397 Y199.233 E9.80701
G1 X3.097 Y198.826 E9.816
G1 X2.864 Y198.376 E9.82501
G1 X2.705 Y197.896 E9.834
G1 X2.612 Y197.176 E9.8469
G1 X2.601 Y196.409 E9.86054
G1 X2.601 Y129.088 E11.05724
G1 X2.611 Y128.385 E11.06973
G1 X2.658 Y127.881 E11.07873
G1 X2.784 Y127.391 E11.08772
G1 X2.986 Y126.926 E11.09674
G1 X3.258 Y126.499 E11.10574
G1 X3.666 Y126.052 E11.11649
G1 X4.57 Y125.233 E11.13818
G1 X6.549 Y123.389 E11.18626
G1 X8.54 Y121.426 E11.23596
G1 X10.408 Y119.476 E11.28396
G1 X12.249 Y117.443 E11.33272
G1 X14.034 Y115.354 E11.38156
G1 X15.759 Y113.218 E11.43037
G1 X17.409 Y111.051 E11.47878
G1 X19.004 Y108.829 E11.5274
G1 X20.53 Y106.57 E11.57586
G1 X22.013 Y104.236 E11.62502
G1 X23.41 Y101.894 E11.67349
G1 X24.741 Y99.512 E11.722
G1 X26.015 Y97.069 E11.77098
G1 X27.208 Y94.618 E11.81943
G1 X28.341 Y92.113 E11.8683
G1 X29.403 Y89.577 E11.91718
G1 X30.38 Y87.036 E11.96557
G1 X31.284 Y84.481 E12.01375
G1 X32.129 Y81.854 E12.0628
G1 X32.899 Y79.209 E12.11177
G1 X33.579 Y76.599 E12.15971
G1 X34.204 Y73.893 E12.20908
G1 X34.737 Y71.227 E12.25741
G1 X35.203 Y68.517 E12.30629
G1 X35.59 Y65.8 E12.35507
G1 X35.897 Y63.101 E12.40336
G1 X36.13 Y60.387 E12.45178
G1 X36.286 Y57.64 E12.50069
G1 X36.365 Y54.879 E12.54979
G1 X36.375 Y53.481 E12.57464
G1 X36.376 Y16.205 E13.23726
G1 X36.369 Y16.112 E13.23892
G1 X36.369 Y15.547 E13.24896
G1 X36.375 Y15.471 E13.25032
G1 X36.375 Y14.361 E13.27005
G1 X36.385 Y13.659 E13.28253
G1 X36.432 Y13.155 E13.29153
M204 S625
M205 X6 Y6
G1 F1500 E6.79153
;MESH:Abdeckplatte Powerbank.stl
G0 F7500 X36.432 Y117.817
G0 X36.432 Y121.327
G0 X35.26 Y121.817
M204 S500
M205 X5 Y5
;TYPE:WALL-INNER
G1 F1500 E13.29153
G1 F1800 X169.856 Y121.817 E15.3423
G1 X170.192 Y121.817 E15.34742
G1 X170.227 Y121.817 E15.34796
G1 X170.192 Y121.844 E15.34808
G1 X169.988 Y122.11 E15.35107
G1 X169.649 Y122.552 E15.35955
G1 X169.306 Y123.378 E15.37318
G1 X169.191 Y124.263 E15.38678
G1 X169.306 Y125.149 E15.40039
G1 X169.649 Y125.974 E15.41401
G1 X170.192 Y126.682 E15.4276
G1 X170.9 Y127.225 E15.4412
G1 X171.725 Y127.568 E15.45481
G1 X172.611 Y127.683 E15.46842
G1 X173.496 Y127.568 E15.48202
G1 X174.322 Y127.225 E15.49565
G1 X175.03 Y126.682 E15.50924
G1 X175.572 Y125.974 E15.52283
G1 X175.915 Y125.149 E15.53644
G1 X176.031 Y124.263 E15.55005
G1 X175.915 Y123.378 E15.56365
G1 X175.572 Y122.554 E15.57725
G1 X175.233 Y122.11 E15.58577
G1 X175.03 Y121.844 E15.59086
G1 X174.995 Y121.817 E15.59154
G1 X175.03 Y121.817
G1 X175.365 Y121.817 E15.59453
G1 X176.706 Y121.817 E15.61496
G1 X198.451 Y129.117 E15.96445
G1 X198.451 Y196.454 E16.99043
G1 X176.702 Y203.938 E17.34088
G1 X175.152 Y203.938 E17.3645
G1 X174.912 Y203.938 E17.36816
G1 X174.753 Y203.938 E17.37058
G1 X174.912 Y203.816 E17.37148
G1 X175.058 Y203.626 E17.37405
G1 X175.455 Y203.108 E17.38399
G1 X175.798 Y202.282 E17.39762
G1 X175.913 Y201.397 E17.41122
G1 X175.798 Y200.511 E17.42483
G1 X175.455 Y199.686 E17.43844
G1 X174.912 Y198.978 E17.45204
G1 X174.204 Y198.435 E17.46563
G1 X173.379 Y198.092 E17.47924
G1 X172.493 Y197.977 E17.49286
G1 X171.608 Y198.092 E17.50645
G1 X170.782 Y198.435 E17.52008
G1 X170.074 Y198.978 E17.53368
G1 X169.532 Y199.686 E17.54726
G1 X169.189 Y200.511 E17.56088
G1 X169.073 Y201.397 E17.57449
G1 X169.189 Y202.282 E17.58809
G1 X169.532 Y203.106 E17.60169
G1 X169.929 Y203.626 E17.61166
G1 X170.074 Y203.816 E17.6153
G1 X170.234 Y203.938 E17.61837
G1 X170.074 Y203.938 E17.61864
G1 X169.835 Y203.938 E17.62121
G1 X35.155 Y203.938 E19.67326
G1 X35.03 Y203.938 E19.67517
G1 X34.723 Y203.938 E19.67985
G1 X35.03 Y203.703 E19.68236
G1 X35.106 Y203.604 E19.68397
G1 X35.573 Y202.995 E19.69566
G1 X35.916 Y202.169 E19.70929
G1 X36.031 Y201.284 E19.72289
G1 X35.916 Y200.398 E19.7365
G1 X35.573 Y199.573 E19.75011
G1 X35.03 Y198.865 E19.76371
G1 X34.322 Y198.322 E19.7773
G1 X33.497 Y197.979 E19.79092
G1 X32.611 Y197.864 E19.80453
G1 X31.726 Y197.979 E19.81813
G1 X30.9 Y198.322 E19.83175
G1 X30.192 Y198.865 E19.84535
G1 X29.65 Y199.573 E19.85894
G1 X29.307 Y200.398 E19.87255
G1 X29.191 Y201.284 E19.88616
G1 X29.307 Y202.169 E19.89976
G1 X29.65 Y202.993 E19.91336
G1 X30.117 Y203.604 E19.92508
G1 X30.192 Y203.703 E19.92697
G1 X30.5 Y203.938 E19.93287
G1 X30.192 Y203.938 E19.93419
G1 X30.067 Y203.938 E19.9358
G1 X29.086 Y203.938 E19.95075
G1 X6.771 Y196.447 E20.3094
G1 X6.771 Y129.124 E21.33517
G1 X29.081 Y121.817 E21.69286
G1 X29.925 Y121.817 E21.70572
G1 X30.173 Y121.817 E21.7095
G1 X30.321 Y121.817 E21.71176
G1 X30.173 Y121.93 E21.71256
G1 X30.023 Y122.127 E21.71517
G1 X29.631 Y122.64 E21.72501
G1 X29.288 Y123.464 E21.73861
G1 X29.172 Y124.349 E21.75221
G1 X29.288 Y125.235 E21.76583
G1 X29.631 Y126.06 E21.77944
G1 X30.173 Y126.768 E21.79302
G1 X30.881 Y127.311 E21.80662
G1 X31.707 Y127.654 E21.82025
G1 X32.592 Y127.769 E21.83384
G1 X33.477 Y127.654 E21.84744
G1 X34.303 Y127.311 E21.86107
G1 X35.011 Y126.768 E21.87466
G1 X35.554 Y126.06 E21.88826
G1 X35.896 Y125.235 E21.90187
G1 X36.012 Y124.349 E21.91548
G1 X35.896 Y123.464 E21.92908
G1 X35.556 Y122.64 E21.94266
G1 X35.162 Y122.127 E21.95252
G1 X35.011 Y121.93 E21.9563
G1 X34.863 Y121.817 E21.95914
G1 X35.011 Y121.817 E21.95936
G1 X35.26 Y121.817 E21.962
M204 S625
M205 X6 Y6
G0 F7500 X34.754 Y122.187
M204 S500
M205 X5 Y5
G1 F1800 X34.253 Y121.804 E21.9716
G1 X34.12 Y121.702 E21.97416
G1 X33.53 Y121.457 E21.98389
G1 X34.12 Y121.457 E21.98683
G1 X34.288 Y121.457 E21.98901
G1 X170.788 Y121.457 E24.0688
G1 X171.082 Y121.457 E24.07328
G1 X171.465 Y121.457 E24.07911
G1 X171.082 Y121.616 E24.08079
G1 X170.849 Y121.794 E24.08407
G1 X170.449 Y122.101 E24.09176
G1 X169.963 Y122.734 E24.10392
G1 X169.657 Y123.472 E24.11609
G1 X169.554 Y124.263 E24.12824
G1 X169.657 Y125.055 E24.14041
G1 X169.963 Y125.792 E24.15257
G1 X170.449 Y126.425 E24.16473
G1 X171.082 Y126.911 E24.17689
G1 X171.819 Y127.217 E24.18905
G1 X172.611 Y127.32 E24.20122
G1 X173.402 Y127.217 E24.21337
G1 X174.14 Y126.911 E24.22554
G1 X174.773 Y126.425 E24.2377
G1 X175.258 Y125.792 E24.24985
G1 X175.564 Y125.055 E24.26201
G1 X175.668 Y124.263 E24.27418
G1 X175.564 Y123.472 E24.28634
G1 X175.258 Y122.735 E24.2985
G1 X174.773 Y122.101 E24.31066
G1 X174.373 Y121.795 E24.31833
G1 X174.139 Y121.616 E24.32282
G1 X173.756 Y121.457 E24.32914
G1 X174.139 Y121.457 E24.33034
G1 X174.434 Y121.457 E24.33365
G1 X176.764 Y121.457 E24.36915
G1 X198.811 Y128.858 E24.72349
G1 X198.811 Y196.71 E25.75732
G1 X198.568 Y196.793 E25.76124
G1 X176.761 Y204.298 E26.11263
G1 X174.176 Y204.298 E26.15201
G1 X174.022 Y204.298 E26.15436
G1 X173.41 Y204.298 E26.16368
G1 X174.022 Y204.044 E26.16762
G1 X174.144 Y203.951 E26.16963
G1 X174.655 Y203.559 E26.17945
G1 X175.141 Y202.926 E26.19161
G1 X175.447 Y202.188 E26.20378
G1 X175.55 Y201.397 E26.21593
G1 X175.447 Y200.605 E26.2281
G1 X175.141 Y199.868 E26.24026
G1 X174.655 Y199.235 E26.25242
G1 X174.022 Y198.749 E26.26458
G1 X173.285 Y198.443 E26.27674
G1 X172.493 Y198.34 E26.28891
G1 X171.702 Y198.443 E26.30106
G1 X170.964 Y198.749 E26.31323
G1 X170.331 Y199.235 E26.32539
G1 X169.846 Y199.868 E26.33754
G1 X169.54 Y200.605 E26.3497
G1 X169.436 Y201.397 E26.36187
G1 X169.54 Y202.188 E26.37403
G1 X169.846 Y202.925 E26.38619
G1 X170.331 Y203.559 E26.39835
G1 X170.842 Y203.95 E26.40815
G1 X170.965 Y204.044 E26.41051
G1 X171.577 Y204.298 E26.42061
G1 X170.965 Y204.298 E26.42378
G1 X170.81 Y204.298 E26.42581
G1 X34.15 Y204.298 E28.50804
G1 X33.403 Y204.298 E28.51942
G1 X32.938 Y204.298 E28.52651
G1 X33.403 Y204.237 E28.52715
G1 X34.092 Y203.951 E28.53389
G1 X34.14 Y203.931 E28.53468
G1 X34.773 Y203.446 E28.54683
G1 X35.259 Y202.813 E28.55899
G1 X35.565 Y202.075 E28.57116
G1 X35.668 Y201.284 E28.58332
G1 X35.565 Y200.492 E28.59549
G1 X35.259 Y199.755 E28.60764
G1 X34.773 Y199.122 E28.6198
G1 X34.14 Y198.636 E28.63196
G1 X33.403 Y198.33 E28.64412
G1 X32.611 Y198.227 E28.65629
G1 X31.82 Y198.33 E28.66844
G1 X31.082 Y198.636 E28.68062
G1 X30.449 Y199.122 E28.69278
G1 X29.964 Y199.755 E28.70493
G1 X29.658 Y200.492 E28.71709
G1 X29.554 Y201.284 E28.72926
G1 X29.658 Y202.075 E28.74141
G1 X29.964 Y202.812 E28.75357
G1 X30.449 Y203.446 E28.76573
G1 X31.083 Y203.931 E28.7779
G1 X31.131 Y203.951 E28.77869
G1 X31.82 Y204.237 E28.79006
G1 X32.284 Y204.298 E28.79719
G1 X31.82 Y204.298 E28.79777
G1 X31.073 Y204.298 E28.80453
G1 X29.028 Y204.298 E28.83568
G1 X6.411 Y196.706 E29.19919
G1 X6.411 Y128.863 E30.23288
G1 X29.024 Y121.457 E30.59543
G1 X30.896 Y121.457 E30.62395
G1 X31.064 Y121.457 E30.62651
G1 X31.654 Y121.457 E30.6355
G1 X31.064 Y121.702 E30.63918
G1 X30.931 Y121.804 E30.64135
G1 X30.43 Y122.187 E30.65096
G1 X29.945 Y122.821 E30.66312
G1 X29.639 Y123.558 E30.67528
G1 X29.535 Y124.349 E30.68744
G1 X29.639 Y125.141 E30.69961
G1 X29.945 Y125.878 E30.71177
G1 X30.43 Y126.511 E30.72392
G1 X31.063 Y126.997 E30.73608
G1 X31.801 Y127.303 E30.74825
G1 X32.592 Y127.406 E30.7604
G1 X33.383 Y127.303 E30.77256
G1 X34.121 Y126.997 E30.78473
G1 X34.754 Y126.511 E30.79689
G1 X35.24 Y125.878 E30.80905
G1 X35.545 Y125.141 E30.8212
G1 X35.649 Y124.349 E30.83337
G1 X35.545 Y123.558 E30.84553
G1 X35.241 Y122.821 E30.85767
G1 X34.754 Y122.187 E30.86986
M204 S625
M205 X6 Y6
G0 F7500 X35.145 Y122.879
G0 X35.437 Y123.587
G0 X35.538 Y124.349
G0 X35.437 Y125.11
G0 X35.143 Y125.821
G0 X34.675 Y126.432
G0 X34.065 Y126.901
G0 X33.353 Y127.195
G0 X32.592 Y127.295
G0 X31.831 Y127.195
G0 X31.12 Y126.901
G0 X30.507 Y126.431
G0 X30.042 Y125.823
G0 X29.747 Y125.11
G0 X29.646 Y124.349
G0 X29.747 Y123.589
G0 X30.439 Y122.259
G0 X30.708 Y122.465
M204 S500
M205 X5 Y5
;TYPE:WALL-OUTER
G1 F1800 X30.286 Y123.017 E30.88221
G1 X30.019 Y123.66 E30.89458
G1 X29.928 Y124.349 E30.90694
G1 X30.019 Y125.039 E30.91931
G1 X30.286 Y125.681 E30.93167
G1 X30.708 Y126.233 E30.94402
G1 X31.26 Y126.656 E30.95638
G1 X31.903 Y126.923 E30.96876
G1 X32.592 Y127.013 E30.98111
G1 X33.281 Y126.923 E30.99346
G1 X33.924 Y126.656 E31.00584
G1 X34.476 Y126.233 E31.0182
G1 X34.899 Y125.681 E31.03056
G1 X35.165 Y125.039 E31.04291
G1 X35.256 Y124.349 E31.05529
G1 X35.165 Y123.66 E31.06764
G1 X34.9 Y123.017 E31.08
G1 X34.476 Y122.465 E31.09238
G1 X33.924 Y122.043 E31.10473
G1 X33.281 Y121.776 E31.1171
G1 X32.592 Y121.685 E31.12946
G1 X31.903 Y121.776 E31.14181
G1 X31.26 Y122.043 E31.15419
G1 X30.708 Y122.465 E31.16654
M204 S625
M205 X6 Y6
G0 F7500 X30.587 Y122.624
G0 X30.22 Y122.343
G0 X29.747 Y123.589
G0 X29.646 Y124.349
G0 X29.665 Y201.284
G0 X29.766 Y202.044
G0 X30.521 Y203.437
G0 X30.727 Y203.168
M204 S500
M205 X5 Y5
G1 F1800 X31.279 Y203.59 E31.17889
G1 X31.922 Y203.857 E31.19127
G1 X32.611 Y203.948 E31.20362
G1 X33.301 Y203.857 E31.21599
G1 X33.943 Y203.59 E31.22835
G1 X34.495 Y203.168 E31.2407
G1 X34.918 Y202.616 E31.25307
G1 X35.185 Y201.973 E31.26544
G1 X35.275 Y201.284 E31.27779
G1 X35.185 Y200.594 E31.29016
G1 X34.918 Y199.952 E31.30252
G1 X34.495 Y199.4 E31.31488
G1 X33.943 Y198.977 E31.32725
G1 X33.301 Y198.71 E31.33961
G1 X32.611 Y198.62 E31.35198
G1 X31.922 Y198.71 E31.36433
G1 X31.279 Y198.977 E31.3767
G1 X30.727 Y199.4 E31.38907
G1 X30.305 Y199.952 E31.40142
G1 X30.038 Y200.594 E31.41378
G1 X29.947 Y201.284 E31.42615
G1 X30.038 Y201.973 E31.4385
G1 X30.305 Y202.616 E31.45088
G1 X30.727 Y203.168 E31.46323
M204 S625
M205 X6 Y6
G0 F7500 X30.886 Y203.289
G0 X30.605 Y203.656
G0 X30.061 Y202.757
G0 X29.766 Y202.044
G0 X29.665 Y201.284
G0 X29.766 Y200.523
G0 X30.061 Y199.81
G0 X30.526 Y199.202
G0 X31.139 Y198.732
G0 X31.85 Y198.438
G0 X170.403 Y203.55
G0 X170.609 Y203.281
M204 S500
M205 X5 Y5
G1 F1800 X171.161 Y203.703 E31.47558
G1 X171.804 Y203.97 E31.48796
G1 X172.493 Y204.061 E31.50031
G1 X173.183 Y203.97 E31.51268
G1 X173.825 Y203.703 E31.52504
G1 X174.377 Y203.281 E31.53739
G1 X174.8 Y202.729 E31.54976
G1 X175.067 Y202.086 E31.56213
G1 X175.157 Y201.397 E31.57448
G1 X175.067 Y200.707 E31.58685
G1 X174.8 Y200.065 E31.59921
G1 X174.377 Y199.513 E31.61157
G1 X173.825 Y199.09 E31.62394
G1 X173.183 Y198.823 E31.6363
G1 X172.493 Y198.733 E31.64867
G1 X171.804 Y198.823 E31.66102
G1 X171.161 Y199.09 E31.67339
G1 X170.609 Y199.513 E31.68576
G1 X170.187 Y200.065 E31.69811
G1 X169.92 Y200.707 E31.71047
G1 X169.829 Y201.397 E31.72284
G1 X169.92 Y202.086 E31.73519
G1 X170.187 Y202.729 E31.74757
G1 X170.609 Y203.281 E31.75992
M204 S625
M205 X6 Y6
G0 F7500 X170.768 Y203.402
G0 X170.487 Y203.769
G0 X169.943 Y202.87
G0 X169.648 Y202.157
G0 X169.547 Y201.397
G0 X175.557 Y124.263
G0 X175.456 Y123.503
G0 X174.701 Y122.11
G0 X174.495 Y122.379
M204 S500
M205 X5 Y5
G1 F1800 X173.943 Y121.957 E31.77227
G1 X173.3 Y121.69 E31.78465
G1 X172.611 Y121.599 E31.797
G1 X171.921 Y121.69 E31.80937
G1 X171.279 Y121.957 E31.82173
G1 X170.727 Y122.379 E31.83408
G1 X170.304 Y122.931 E31.84645
G1 X170.037 Y123.574 E31.85882
