;START_OF_HEADER
;HEADER_VERSION:0.1
;FLAVOR:Griffin
;GENERATOR.NAME:Cura_SteamEngine
;GENERATOR.VERSION:4.8.0
;GENERATOR.BUILD_DATE:2020-11-10
;TARGET_MACHINE.NAME:Ultimaker 3
;EXTRUDER_TRAIN.0.INITIAL_TEMPERATURE:265
;EXTRUDER_TRAIN.0.MATERIAL.VOLUME_USED:1223
;EXTRUDER_TRAIN.0.MATERIAL.GUID:24e7f5e4-ee4a-46b8-8671-953334553ea0
;EXTRUDER_TRAIN.0.NOZZLE.DIAMETER:0.4
;EXTRUDER_TRAIN.0.NOZZLE.NAME:AA 0.4
;BUILD_PLATE.TYPE:glass
;BUILD_PLATE.INITIAL_TEMPERATURE:80
;PRINT.TIME:667
;PRINT.GROUPS:1
;PRINT.SIZE.MIN.X:9
;PRINT.SIZE.MIN.Y:6
;PRINT.SIZE.MIN.Z:0.27
;PRINT.SIZE.MAX.X:132.364
;PRINT.SIZE.MAX.Y:123.935
;PRINT.SIZE.MAX.Z:3.47
;END_OF_HEADER
;Generated with Cura_SteamEngine 4.8.0
T0
M82 ;absolute extrusion mode

G92 E0
M109 S265
G0 F15000 X9 Y6 Z2
G280
G1 F1500 E-6.5
;LAYER_COUNT:17
;LAYER:0
M107
M204 S625
M205 X6 Y6
G1 F600 Z2.27
G0 F7500 X101.641 Y92.464 Z2.27
M204 S500
M205 X5 Y5
;TYPE:SKIRT
G1 F600 Z0.27
G1 F1500 E0
G1 F1800 X102.043 Y92.063 E0.01009
G1 X102.498 Y91.721 E0.02021
G1 X102.997 Y91.447 E0.03033
G1 X103.529 Y91.246 E0.04044
G1 X104.084 Y91.12 E0.05056
G1 X104.902 Y91.067 E0.06513
G1 X105.016 Y91.065 E0.06715
G1 X127.665 Y91.065 E0.46976
G1 X128.363 Y91.075 E0.48217
G1 X128.93 Y91.123 E0.49229
G1 X129.484 Y91.251 E0.50239
G1 X130.016 Y91.454 E0.51252
G1 X130.513 Y91.73 E0.52262
G1 X130.967 Y92.073 E0.53274
G1 X131.368 Y92.476 E0.54284
G1 X131.709 Y92.931 E0.55295
G1 X131.983 Y93.43 E0.56307
G1 X132.184 Y93.962 E0.57318
G1 X132.309 Y94.517 E0.58329
G1 X132.362 Y95.331 E0.59779
G1 X132.364 Y95.445 E0.59982
G1 X132.364 Y119.199 E1.02207
G1 X132.355 Y119.926 E1.03499
G1 X132.308 Y120.493 E1.04511
G1 X132.182 Y121.048 E1.05522
G1 X131.979 Y121.579 E1.06533
G1 X131.704 Y122.077 E1.07544
G1 X131.362 Y122.532 E1.08556
G1 X130.96 Y122.934 E1.09566
G1 X130.505 Y123.276 E1.10578
G1 X130.007 Y123.551 E1.1159
G1 X129.476 Y123.753 E1.12599
G1 X128.921 Y123.879 E1.13611
G1 X128.419 Y123.924 E1.14507
G1 X127.984 Y123.935 E1.15281
G1 X105.341 Y123.935 E1.55531
G1 X104.643 Y123.926 E1.56772
G1 X104.076 Y123.878 E1.57783
G1 X103.521 Y123.752 E1.58795
G1 X102.99 Y123.549 E1.59805
G1 X102.492 Y123.274 E1.60817
G1 X102.037 Y122.932 E1.61828
G1 X101.635 Y122.53 E1.62839
G1 X101.294 Y122.075 E1.6385
G1 X101.019 Y121.576 E1.64862
G1 X100.817 Y121.045 E1.65872
G1 X100.692 Y120.49 E1.66884
G1 X100.646 Y119.985 E1.67785
G1 X100.636 Y119.543 E1.68571
G1 X100.636 Y95.734 E2.10894
G1 X100.645 Y95.069 E2.12076
G1 X100.693 Y94.502 E2.13087
G1 X100.82 Y93.948 E2.14098
G1 X101.023 Y93.416 E2.1511
G1 X101.298 Y92.919 E2.1612
G1 X101.641 Y92.464 E2.17133
M204 S625
M205 X6 Y6
G0 F7500 X102.054 Y92.634
M204 S500
M205 X5 Y5
G1 F1800 X102.451 Y92.27 E2.1809
G1 X102.898 Y91.97 E2.19047
G1 X103.385 Y91.739 E2.20005
G1 X103.9 Y91.582 E2.20962
G1 X104.593 Y91.495 E2.22204
G1 X105.016 Y91.485 E2.22956
G1 X127.659 Y91.485 E2.63206
G1 X128.357 Y91.495 E2.64447
G1 X128.893 Y91.543 E2.65403
G1 X129.417 Y91.669 E2.66361
G1 X129.916 Y91.872 E2.67319
G1 X130.379 Y92.146 E2.68275
G1 X130.797 Y92.486 E2.69233
G1 X131.16 Y92.884 E2.70191
G1 X131.46 Y93.331 E2.71148
G1 X131.691 Y93.817 E2.72104
G1 X131.847 Y94.333 E2.73063
G1 X131.934 Y95.023 E2.74299
G1 X131.944 Y95.445 E2.75049
G1 X131.944 Y119.194 E3.17265
G1 X131.935 Y119.921 E3.18558
G1 X131.888 Y120.457 E3.19514
G1 X131.763 Y120.981 E3.20472
G1 X131.561 Y121.481 E3.2143
G1 X131.288 Y121.945 E3.22387
G1 X130.949 Y122.363 E3.23344
G1 X130.552 Y122.727 E3.24301
G1 X130.106 Y123.028 E3.25258
G1 X129.619 Y123.26 E3.26217
G1 X129.104 Y123.417 E3.27174
G1 X128.407 Y123.505 E3.28423
G1 X127.984 Y123.515 E3.29175
G1 X105.346 Y123.515 E3.69416
G1 X104.648 Y123.506 E3.70657
G1 X104.112 Y123.459 E3.71613
G1 X103.588 Y123.333 E3.72571
G1 X103.089 Y123.131 E3.73528
G1 X102.625 Y122.858 E3.74485
G1 X102.207 Y122.519 E3.75442
G1 X101.843 Y122.122 E3.76399
G1 X101.542 Y121.675 E3.77357
G1 X101.311 Y121.189 E3.78314
G1 X101.154 Y120.674 E3.79271
G1 X101.066 Y119.974 E3.80525
G1 X101.056 Y119.543 E3.81291
G1 X101.056 Y95.74 E4.23604
G1 X101.065 Y95.075 E4.24786
G1 X101.113 Y94.538 E4.25744
G1 X101.239 Y94.015 E4.267
G1 X101.441 Y93.516 E4.27657
G1 X101.714 Y93.052 E4.28614
G1 X102.054 Y92.634 E4.29572
M204 S625
M205 X6 Y6
G0 F7500 X102.13 Y93.194
M204 S500
M205 X5 Y5
G1 F1800 X102.466 Y92.814 E4.30474
G1 X102.857 Y92.493 E4.31373
G1 X103.293 Y92.236 E4.32273
G1 X103.765 Y92.052 E4.33173
G1 X104.26 Y91.944 E4.34074
G1 X104.926 Y91.906 E4.3526
G1 X127.653 Y91.905 E4.75659
G1 X128.351 Y91.915 E4.769
G1 X128.855 Y91.962 E4.778
G1 X129.346 Y92.088 E4.78701
G1 X129.81 Y92.29 E4.79601
G1 X130.237 Y92.562 E4.805
G1 X130.616 Y92.897 E4.814
G1 X130.938 Y93.289 E4.82301
G1 X131.194 Y93.726 E4.83202
G1 X131.378 Y94.197 E4.84101
G1 X131.486 Y94.692 E4.85001
G1 X131.523 Y95.355 E4.86182
G1 X131.524 Y119.189 E5.28549
G1 X131.515 Y119.916 E5.29841
G1 X131.469 Y120.42 E5.30741
G1 X131.344 Y120.911 E5.31641
G1 X131.143 Y121.376 E5.32542
G1 X130.872 Y121.803 E5.33441
G1 X130.537 Y122.183 E5.34341
G1 X130.146 Y122.505 E5.35242
G1 X129.71 Y122.762 E5.36142
G1 X129.239 Y122.947 E5.37041
G1 X128.744 Y123.056 E5.37942
G1 X128.074 Y123.094 E5.39135
G1 X105.352 Y123.095 E5.79526
G1 X104.654 Y123.086 E5.80766
G1 X104.149 Y123.039 E5.81668
G1 X103.659 Y122.914 E5.82567
G1 X103.194 Y122.713 E5.83467
G1 X102.766 Y122.442 E5.84368
G1 X102.387 Y122.107 E5.85267
G1 X102.065 Y121.716 E5.86167
G1 X101.808 Y121.28 E5.87067
G1 X101.623 Y120.808 E5.87968
G1 X101.515 Y120.314 E5.88867
G1 X101.477 Y119.63 E5.90085
G1 X101.476 Y95.746 E6.32541
G1 X101.485 Y95.081 E6.33723
G1 X101.532 Y94.576 E6.34625
G1 X101.658 Y94.086 E6.35524
G1 X101.859 Y93.621 E6.36425
G1 X102.13 Y93.194 E6.37324
M204 S625
M205 X6 Y6
G1 F1500 E-0.12676
;MESH:Spacer_Kamara_v1.stl
G0 F7500 X105.15 Y95.579
G0 X105.646 Y96.075
M204 S500
M205 X5 Y5
;TYPE:WALL-INNER
G1 F1500 E6.37324
G1 F1800 X111.708 Y96.075 E6.4656
G1 X111.978 Y96.075 E6.46971
G1 X111.873 Y96.324 E6.47212
G1 X111.786 Y96.529 E6.47551
G1 X111.732 Y97.094 E6.48416
G1 X111.908 Y97.914 E6.49694
G1 X112.425 Y98.647 E6.5106
G1 X113.195 Y99.119 E6.52436
G1 X114.083 Y99.248 E6.53804
G1 X114.952 Y99.017 E6.55174
G1 X115.659 Y98.46 E6.56545
G1 X116.088 Y97.673 E6.57911
G1 X116.166 Y96.851 E6.59169
G1 X116.174 Y96.777 E6.59282
G1 X116.024 Y96.309 E6.60031
G1 X115.949 Y96.075 E6.60405
G1 X116.194 Y96.075 E6.60628
G1 X116.195 Y96.075 E6.60629
G1 X124.235 Y96.075 E6.7288
G1 X124.389 Y96.075 E6.73114
G1 X124.457 Y96.075 E6.73218
G1 X124.389 Y96.179 E6.73295
G1 X124.36 Y96.33 E6.73465
G1 X124.224 Y97.032 E6.74555
G1 X124.4 Y97.886 E6.75883
G1 X124.889 Y98.606 E6.77209
G1 X125.567 Y99.052 E6.78446
G1 X126.07 Y99.2 E6.79245
G1 X126.819 Y99.227 E6.80387
G1 X127.12 Y99.129 E6.80869
G1 X127.354 Y99.054 E6.81244
G1 X127.354 Y99.299 E6.81466
G1 X127.354 Y99.3 E6.81468
G1 X127.354 Y99.616 E6.81949
G1 X107.335 Y99.616 E7.12451
G1 X107.335 Y114.033 E7.34418
G1 X127.354 Y114.033 E7.6492
G1 X127.354 Y115.741 E7.67522
G1 X127.354 Y115.946 E7.67834
G1 X127.342 Y115.938 E7.67856
G1 X127.141 Y115.903 E7.68053
G1 X126.476 Y115.787 E7.69081
G1 X125.633 Y115.979 E7.70398
G1 X124.93 Y116.451 E7.71689
G1 X124.436 Y117.164 E7.7301
G1 X124.281 Y117.964 E7.74252
G1 X124.266 Y118.036 E7.74364
G1 X124.449 Y118.901 E7.75711
G1 X124.466 Y118.925 E7.75756
G1 X124.449 Y118.925
G1 X116.088 Y118.925 E7.88495
G1 X115.951 Y118.925 E7.88704
G1 X116.088 Y118.673 E7.88956
G1 X116.166 Y117.851 E7.90215
G1 X116.174 Y117.777 E7.90328
G1 X115.899 Y116.918 E7.91702
G1 X115.306 Y116.241 E7.93073
G1 X114.498 Y115.853 E7.94439
G1 X113.599 Y115.813 E7.9581
G1 X112.757 Y116.133 E7.97183
G1 X112.112 Y116.757 E7.9855
G1 X111.786 Y117.529 E7.99827
G1 X111.732 Y118.094 E8.00692
G1 X111.863 Y118.704 E8.01642
G1 X111.908 Y118.914 E8.0197
G1 X111.916 Y118.925 E8.0199
G1 X111.701 Y118.925 E8.02195
G1 X105.646 Y118.925 E8.1142
G1 X105.646 Y96.075 E8.46236
M204 S625
M205 X6 Y6
G0 F7500 X107.817 Y113.551
G0 X124.775 Y117.307
M204 S500
M205 X5 Y5
G1 F1800 X124.633 Y118.033 E8.47363
G1 X124.786 Y118.753 E8.48485
G1 X124.963 Y119.002 E8.4895
G1 X125.164 Y119.285 E8.49479
G1 X124.817 Y119.285 E8.49773
G1 X115.628 Y119.285 E8.63774
G1 X115.378 Y119.285 E8.64155
G1 X115.299 Y119.285 E8.64275
G1 X115.378 Y119.223 E8.6431
G1 X115.497 Y119.004 E8.64554
G1 X115.737 Y118.565 E8.65317
G1 X115.809 Y117.816 E8.66463
G1 X115.579 Y117.099 E8.6761
G1 X115.084 Y116.534 E8.68755
G1 X114.408 Y116.209 E8.69898
G1 X113.657 Y116.176 E8.71043
G1 X112.954 Y116.443 E8.72189
G1 X112.415 Y116.965 E8.73332
G1 X112.139 Y117.618 E8.74412
G1 X112.096 Y118.073 E8.75109
G1 X112.245 Y118.767 E8.7619
G1 X112.411 Y119.002 E8.76629
G1 X112.61 Y119.285 E8.77156
G1 X112.265 Y119.285 E8.77448
G1 X112.264 Y119.285 E8.77449
G1 X105.286 Y119.285 E8.88082
G1 X105.286 Y95.715 E9.23994
G1 X112.333 Y95.715 E9.34731
G1 X112.415 Y95.715 E9.34856
G1 X112.673 Y95.715 E9.35249
G1 X112.415 Y95.965 E9.35512
G1 X112.384 Y96.04 E9.3562
G1 X112.139 Y96.618 E9.36577
G1 X112.096 Y97.073 E9.37273
G1 X112.245 Y97.767 E9.38354
G1 X112.676 Y98.379 E9.39495
G1 X113.32 Y98.773 E9.40645
G1 X114.062 Y98.881 E9.41788
G1 X114.788 Y98.688 E9.42932
G1 X115.378 Y98.223 E9.44077
G1 X115.737 Y97.565 E9.45219
G1 X115.809 Y96.816 E9.46365
G1 X115.579 Y96.099 E9.47513
G1 X115.503 Y96.012 E9.47689
G1 X115.243 Y95.715 E9.4829
G1 X115.637 Y95.715 E9.48617
G1 X115.638 Y95.715 E9.48618
G1 X124.793 Y95.715 E9.62568
G1 X124.794 Y95.715 E9.62569
G1 X125.125 Y95.715 E9.63073
G1 X124.943 Y95.992 E9.63356
G1 X124.729 Y96.317 E9.63949
G1 X124.591 Y97.03 E9.65055
G1 X124.738 Y97.743 E9.66165
G1 X125.147 Y98.345 E9.67274
G1 X125.72 Y98.722 E9.68319
G1 X126.128 Y98.842 E9.68967
G1 X126.769 Y98.865 E9.69944
G1 X127.384 Y98.666 E9.70929
G1 X127.435 Y98.65 E9.7101
G1 X127.714 Y98.416 E9.71565
G1 X127.714 Y98.65 E9.71668
G1 X127.714 Y98.704 E9.71743
G1 X127.714 Y116.276 E9.98517
G1 X127.714 Y116.277 E9.98518
G1 X127.714 Y116.603 E9.99015
G1 X127.439 Y116.427 E9.99294
G1 X127.209 Y116.28 E9.9971
G1 X126.485 Y116.154 E10.0083
G1 X125.778 Y116.315 E10.01935
G1 X125.187 Y116.712 E10.0302
G1 X124.775 Y117.307 E10.04122
M204 S625
M205 X6 Y6
G0 F7500 X125.142 Y117.462
M204 S500
M205 X5 Y5
;TYPE:WALL-OUTER
G1 F1800 X125.031 Y118.03 E10.05151
G1 X125.151 Y118.593 E10.06174
G1 X125.481 Y119.057 E10.07186
G1 X125.8 Y119.265 E10.07863
G1 X125.955 Y119.365 E10.08191
G1 X126.515 Y119.486 E10.0921
G1 X127.086 Y119.379 E10.10242
G1 X127.257 Y119.266 E10.10607
G1 X127.569 Y119.059 E10.11272
G1 X127.702 Y118.859 E10.11699
G1 X127.891 Y118.576 E10.12304
G1 X128 Y118.006 E10.13336
G1 X127.883 Y117.441 E10.14361
G1 X127.702 Y117.178 E10.14929
G1 X127.554 Y116.963 E10.15393
G1 X127.065 Y116.651 E10.16424
G1 X126.495 Y116.552 E10.17452
G1 X125.935 Y116.679 E10.18473
G1 X125.466 Y116.995 E10.19478
G1 X125.142 Y117.462 E10.20489
M204 S625
M205 X6 Y6
G0 F7500 X125.104 Y117.658
G0 X124.65 Y117.569
G0 X115.488 Y117.073
G0 X115.232 Y117.295
M204 S500
M205 X5 Y5
G1 F1800 X114.843 Y116.851 E10.21538
G1 X114.311 Y116.595 E10.22588
G1 X113.72 Y116.569 E10.23639
G1 X113.168 Y116.779 E10.24689
G1 X112.743 Y117.19 E10.2574
G1 X112.522 Y117.714 E10.26751
G1 X112.49 Y118.05 E10.27351
G1 X112.61 Y118.607 E10.28364
G1 X112.949 Y119.089 E10.29411
G1 X113.238 Y119.266 E10.30014
G1 X113.455 Y119.399 E10.30466
G1 X114.039 Y119.484 E10.31515
G1 X114.61 Y119.332 E10.32565
G1 X114.696 Y119.264 E10.3276
G1 X115.074 Y118.966 E10.33616
G1 X115.356 Y118.448 E10.34664
G1 X115.413 Y117.859 E10.35716
G1 X115.232 Y117.295 E10.36769
M204 S625
M205 X6 Y6
G0 F7500 X115.101 Y117.145
G0 X115.448 Y116.842
G0 X109.551 Y113.553
G0 X107.817 Y113.551
G0 X107.695 Y99.976
M204 S500
M205 X5 Y5
;TYPE:WALL-INNER
G1 F1800 X107.695 Y113.673 E10.57639
G1 X127.333 Y113.673 E10.8756
G1 X127.333 Y99.976 E11.0843
G1 X107.695 Y99.976 E11.38351
M204 S625
M205 X6 Y6
G0 F7500 X108.085 Y100.366
M204 S500
M205 X5 Y5
;TYPE:WALL-OUTER
G1 F1800 X108.085 Y113.283 E11.61312
G1 X126.943 Y113.283 E11.94834
G1 X126.943 Y100.366 E12.17796
G1 X108.085 Y100.366 E12.51318
M204 S625
M205 X6 Y6
G0 F7500 X108.085 Y100.566
G0 X107.623 Y100.566
G0 X114.735 Y98.586
G0 X115.292 Y98.148
G0 X115.628 Y97.532
G0 X115.488 Y96.073
G0 X115.232 Y96.295
M204 S500
M205 X5 Y5
G1 F1800 X114.843 Y95.851 E12.52367
G1 X114.606 Y95.737 E12.52834
G1 X114.311 Y95.595 E12.53416
G1 X113.72 Y95.569 E12.54468
G1 X113.273 Y95.739 E12.55318
G1 X113.168 Y95.779 E12.55518
G1 X112.743 Y96.19 E12.56569
G1 X112.522 Y96.714 E12.5758
G1 X112.49 Y97.05 E12.5818
G1 X112.61 Y97.607 E12.59193
G1 X112.949 Y98.089 E12.6024
G1 X113.455 Y98.399 E12.61295
G1 X114.039 Y98.484 E12.62344
G1 X114.61 Y98.332 E12.63394
G1 X115.074 Y97.966 E12.64445
G1 X115.356 Y97.448 E12.65493
G1 X115.413 Y96.859 E12.66545
G1 X115.232 Y96.295 E12.67598
M204 S625
M205 X6 Y6
G0 F7500 X115.101 Y96.145
G0 X115.448 Y95.842
G0 X125.846 Y95.577
G0 X125.884 Y95.669
M204 S500
M205 X5 Y5
G1 F1800 X125.783 Y95.738 E12.67815
G1 X125.41 Y95.991 E12.68617
G1 X125.097 Y96.467 E12.69629
G1 X124.989 Y97.028 E12.70645
G1 X125.104 Y97.588 E12.71661
G1 X125.426 Y98.062 E12.7268
G1 X125.886 Y98.364 E12.73658
G1 X126.191 Y98.454 E12.74223
G1 X126.714 Y98.473 E12.75153
G1 X127.243 Y98.302 E12.76142
G1 X127.677 Y97.939 E12.77147
G1 X127.699 Y97.897 E12.77232
G1 X127.939 Y97.438 E12.78152
G1 X127.994 Y96.878 E12.79153
G1 X127.832 Y96.334 E12.80162
G1 X127.701 Y96.172 E12.80532
G1 X127.478 Y95.895 E12.81164
G1 X127.192 Y95.737 E12.81745
G1 X126.982 Y95.621 E12.82171
G1 X126.427 Y95.558 E12.83164
G1 X125.884 Y95.669 E12.8415
M204 S625
M205 X6 Y6
G0 F7500 X125.783 Y95.738
G0 X125.719 Y95.781
G0 X125.664 Y95.698
G0 X126.426 Y95.519
G0 X128.004 Y96.125
G0 X128.104 Y96.125
M204 S500
M205 X5 Y5
G1 F1800 X128.104 Y96.334 E12.84459
G1 X128.104 Y96.878 E12.84894
G1 X128.104 Y97.438 E12.85219
G1 X128.104 Y97.956 E12.85869
G1 X128.104 Y117.121 E13.19936
G1 X128.104 Y117.441 E13.20377
G1 X128.104 Y118.006 E13.20762
G1 X128.104 Y118.576 E13.21142
G1 X128.104 Y118.917 E13.21605
G1 X128.104 Y119.675 E13.22953
G1 X127.291 Y119.675 E13.24398
G1 X127.086 Y119.675 E13.24711
G1 X126.515 Y119.675 E13.25295
G1 X125.955 Y119.675 E13.25884
G1 X125.77 Y119.675 E13.26172
G1 X114.72 Y119.675 E13.45814
G1 X114.61 Y119.675 E13.45993
G1 X114.039 Y119.675 E13.46635
G1 X113.455 Y119.675 E13.47211
G1 X113.2 Y119.675 E13.47589
G1 X104.896 Y119.675 E13.62351
G1 X104.896 Y95.325 E14.05635
G1 X113.242 Y95.325 E14.20471
G1 X113.72 Y95.325 E14.21146
G1 X114.311 Y95.325 E14.21788
G1 X114.639 Y95.325 E14.2227
G1 X125.761 Y95.325 E14.42041
G1 X125.884 Y95.325 E14.4224
G1 X126.427 Y95.325 E14.42902
G1 X126.982 Y95.325 E14.43523
G1 X127.222 Y95.325 E14.43889
G1 X128.104 Y95.325 E14.45457
G1 X128.104 Y96.125 E14.46879
M204 S625
M205 X6 Y6
G0 F7500 X128.104 Y96.325
G0 X128.004 Y96.325
G0 X127.977 Y97.449
G0 X127.546 Y98.504
G0 X125.156 Y99.236
M204 S500
M205 X5 Y5
;TYPE:SKIN
G1 F1800 X115.288 Y99.236 E14.6442
G1 X115.955 Y98.711 E14.65929
G1 X116.459 Y97.787 E14.678
G1 X116.56 Y96.735 E14.69679
G1 X116.47 Y96.455 E14.70201
G1 X123.949 Y96.455 E14.83496
G1 X123.836 Y97.034 E14.84545
G1 X124.043 Y98.036 E14.86363
G1 X124.617 Y98.882 E14.88181
G1 X125.156 Y99.236 E14.89327
M204 S625
M205 X6 Y6
G0 F7500 X112.658 Y99.236
M204 S500
M205 X5 Y5
G1 F1800 X106.955 Y99.236 E14.99465
G1 X106.955 Y114.413 E15.26443
G1 X126.974 Y114.413 E15.62029
G1 X126.974 Y115.488 E15.6394
G1 X126.466 Y115.399 E15.64857
G1 X125.479 Y115.624 E15.66656
G1 X124.658 Y116.176 E15.68415
G1 X124.079 Y117.014 E15.70225
G1 X123.878 Y118.039 E15.72082
G1 X123.985 Y118.545 E15.73002
G1 X116.482 Y118.545 E15.86339
G1 X116.56 Y117.735 E15.87785
G1 X116.237 Y116.727 E15.89667
G1 X115.54 Y115.932 E15.91546
G1 X114.593 Y115.477 E15.93414
G1 X113.538 Y115.43 E15.95291
G1 X112.549 Y115.806 E15.97172
G1 X111.792 Y116.538 E15.99044
G1 X111.413 Y117.434 E16.00773
G1 X111.348 Y118.117 E16.01993
G1 X111.44 Y118.545 E16.02771
G1 X106.026 Y118.545 E16.12395
G1 X106.026 Y96.455 E16.51662
G1 X111.411 Y96.455 E16.61234
G1 X111.348 Y97.117 E16.62416
G1 X111.553 Y98.07 E16.64149
G1 X112.159 Y98.93 E16.66019
G1 X112.658 Y99.236 E16.6706
M204 S625
