;START_OF_HEADER
;HEADER_VERSION:0.1
;FLAVOR:Griffin
;GENERATOR.NAME:Cura_SteamEngine
;GENERATOR.VERSION:4.8.0
;GENERATOR.BUILD_DATE:2020-11-10
;TARGET_MACHINE.NAME:Ultimaker 3
;EXTRUDER_TRAIN.0.INITIAL_TEMPERATURE:265
;EXTRUDER_TRAIN.0.MATERIAL.VOLUME_USED:33384
;EXTRUDER_TRAIN.0.MATERIAL.GUID:24e7f5e4-ee4a-46b8-8671-953334553ea0
;EXTRUDER_TRAIN.0.NOZZLE.DIAMETER:0.4
;EXTRUDER_TRAIN.0.NOZZLE.NAME:AA 0.4
;BUILD_PLATE.TYPE:glass
;BUILD_PLATE.INITIAL_TEMPERATURE:80
;PRINT.TIME:13894
;PRINT.GROUPS:1
;PRINT.SIZE.MIN.X:6.833
;PRINT.SIZE.MIN.Y:6
;PRINT.SIZE.MIN.Z:0.27
;PRINT.SIZE.MAX.X:206.853
;PRINT.SIZE.MAX.Y:152.4
;PRINT.SIZE.MAX.Z:5.87
;END_OF_HEADER
;Generated with Cura_SteamEngine 4.8.0
T0
M82 ;absolute extrusion mode

G92 E0
M109 S265
G0 F15000 X9 Y6 Z2
G280
G1 F1500 E-6.5
;LAYER_COUNT:29
;LAYER:0
M107
M204 S625
M205 X6 Y6
G1 F600 Z2.27
G0 F7500 X31.54 Y62.302 Z2.27
M204 S500
M205 X5 Y5
;TYPE:SKIRT
G1 F600 Z0.27
G1 F1500 E0
G1 F1800 X32.188 Y62.1 E0.01207
G1 X32.681 Y61.988 E0.02105
G1 X33.089 Y61.955 E0.02833
G1 X33.973 Y61.94 E0.04404
G1 X180.429 Y61.94 E2.64744
G1 X181.095 Y61.949 E2.65928
G1 X181.6 Y61.996 E2.6683
G1 X182.012 Y62.096 E2.67584
G1 X183.098 Y62.437 E2.69607
G1 X204.066 Y69.476 E3.08924
G1 X204.697 Y69.698 E3.10113
G1 X205.16 Y69.903 E3.11013
G1 X205.585 Y70.179 E3.11914
G1 X205.961 Y70.517 E3.12812
G1 X206.28 Y70.911 E3.13714
G1 X206.532 Y71.35 E3.14613
G1 X206.712 Y71.823 E3.15513
G1 X206.816 Y72.319 E3.16414
G1 X206.842 Y72.677 E3.17052
G1 X206.853 Y73.399 E3.18336
G1 X206.853 Y140.738 E4.38037
G1 X206.843 Y141.468 E4.39335
G1 X206.796 Y141.972 E4.40235
G1 X206.67 Y142.463 E4.41136
G1 X206.469 Y142.927 E4.42035
G1 X206.197 Y143.355 E4.42936
G1 X205.862 Y143.734 E4.43835
G1 X205.471 Y144.056 E4.44736
G1 X204.803 Y144.413 E4.46082
G1 X204.176 Y144.643 E4.47269
G1 X182.762 Y152.01 E4.87524
G1 X182.096 Y152.229 E4.88771
G1 X181.604 Y152.349 E4.89671
G1 X180.993 Y152.395 E4.9076
G1 X180.646 Y152.4 E4.91377
G1 X33.825 Y152.4 E7.52366
G1 X33.157 Y152.391 E7.53553
G1 X32.653 Y152.344 E7.54453
G1 X32.239 Y152.244 E7.5521
G1 X31.172 Y151.908 E7.57198
G1 X9.624 Y144.676 E7.97602
G1 X8.988 Y144.452 E7.98801
G1 X8.525 Y144.246 E7.99701
G1 X8.1 Y143.971 E8.00601
G1 X7.724 Y143.632 E8.01501
G1 X7.406 Y143.238 E8.02401
G1 X7.153 Y142.799 E8.03302
G1 X6.973 Y142.326 E8.04201
G1 X6.87 Y141.83 E8.05102
G1 X6.844 Y141.471 E8.05742
G1 X6.833 Y140.713 E8.07089
G1 X6.833 Y73.371 E9.26796
G1 X6.843 Y72.69 E9.28007
G1 X6.891 Y72.186 E9.28907
G1 X7.017 Y71.695 E9.29808
G1 X7.218 Y71.231 E9.30707
G1 X7.49 Y70.804 E9.31607
G1 X7.826 Y70.425 E9.32507
G1 X8.218 Y70.103 E9.33409
G1 X8.655 Y69.848 E9.34308
G1 X8.993 Y69.707 E9.34959
G1 X9.954 Y69.371 E9.36769
G1 X31.54 Y62.302 E9.77145
M204 S625
M205 X6 Y6
G1 F1500 E3.27145
;MESH:Abdeckplatte_Powerbank_v1.stl
G0 F7500 X32.679 Y65.782
G0 X34.424 Y143.157
M204 S500
M205 X5 Y5
;TYPE:WALL-INNER
G1 F1500 E9.77145
G1 F1800 X33.882 Y143.867 E9.78506
G1 X33.539 Y144.691 E9.79866
G1 X33.423 Y145.576 E9.81226
G1 X33.539 Y146.462 E9.82588
G1 X33.882 Y147.287 E9.83949
G1 X34.348 Y147.896 E9.85117
G1 X34.424 Y147.995 E9.85308
G1 X34.73 Y148.23 E9.85896
G1 X34.424 Y148.23 E9.86026
G1 X34.299 Y148.23 E9.86187
G1 X33.317 Y148.23 E9.87683
G1 X11.003 Y140.74 E10.23546
G1 X11.003 Y73.417 E11.26123
G1 X33.312 Y66.11 E11.61891
G1 X34.156 Y66.11 E11.63177
G1 X34.405 Y66.11 E11.63557
G1 X34.552 Y66.11 E11.63781
G1 X34.405 Y66.223 E11.63861
G1 X34.254 Y66.42 E11.64123
G1 X33.862 Y66.931 E11.65105
G1 X33.52 Y67.756 E11.66465
G1 X33.404 Y68.642 E11.67827
G1 X33.52 Y69.527 E11.69187
G1 X33.86 Y70.351 E11.70545
G1 X34.405 Y71.061 E11.71909
G1 X35.115 Y71.603 E11.7327
G1 X35.939 Y71.946 E11.7463
G1 X36.824 Y72.062 E11.75989
G1 X37.709 Y71.946 E11.77349
G1 X38.533 Y71.603 E11.78709
G1 X39.243 Y71.061 E11.8007
G1 X39.785 Y70.351 E11.81431
G1 X40.128 Y69.527 E11.82791
G1 X40.244 Y68.642 E11.84151
G1 X40.128 Y67.756 E11.85513
G1 X39.785 Y66.931 E11.86874
G1 X39.394 Y66.42 E11.87854
G1 X39.243 Y66.223 E11.88233
G1 X39.096 Y66.11 E11.88515
G1 X39.243 Y66.11 E11.88538
G1 X39.492 Y66.11 E11.88801
G1 X174.087 Y66.11 E13.93877
G1 X174.423 Y66.11 E13.94389
G1 X174.458 Y66.11 E13.94442
G1 X174.423 Y66.137 E13.94454
G1 X174.219 Y66.403 E13.94753
G1 X173.881 Y66.845 E13.95601
G1 X173.538 Y67.67 E13.96963
G1 X173.422 Y68.556 E13.98324
G1 X173.538 Y69.441 E13.99684
G1 X173.881 Y70.265 E14.01044
G1 X174.423 Y70.975 E14.02405
G1 X175.133 Y71.517 E14.03766
G1 X175.957 Y71.86 E14.05126
G1 X176.842 Y71.976 E14.06486
G1 X177.728 Y71.86 E14.07847
G1 X178.553 Y71.517 E14.09209
G1 X179.261 Y70.975 E14.10567
G1 X179.804 Y70.267 E14.11927
G1 X180.147 Y69.441 E14.13289
G1 X180.262 Y68.556 E14.14649
G1 X180.147 Y67.67 E14.1601
G1 X179.804 Y66.845 E14.17372
G1 X179.465 Y66.403 E14.1822
G1 X179.261 Y66.137 E14.18731
G1 X179.226 Y66.11 E14.18799
G1 X179.261 Y66.11
G1 X179.597 Y66.11 E14.19099
G1 X180.937 Y66.11 E14.2114
G1 X202.683 Y73.41 E14.56091
G1 X202.683 Y140.747 E15.58689
G1 X180.933 Y148.23 E15.93735
G1 X179.384 Y148.23 E15.96095
G1 X179.144 Y148.23 E15.96461
G1 X178.985 Y148.23 E15.96703
G1 X179.144 Y148.108 E15.96793
G1 X179.29 Y147.918 E15.9705
G1 X179.687 Y147.4 E15.98044
G1 X180.03 Y146.574 E15.99407
G1 X180.145 Y145.689 E16.00767
G1 X180.03 Y144.804 E16.02127
G1 X179.687 Y143.978 E16.03489
G1 X179.144 Y143.27 E16.04849
G1 X178.436 Y142.728 E16.06207
G1 X177.611 Y142.385 E16.07569
G1 X176.725 Y142.269 E16.0893
G1 X175.84 Y142.385 E16.1029
G1 X175.016 Y142.728 E16.1165
G1 X174.306 Y143.27 E16.13011
G1 X173.764 Y143.98 E16.14372
G1 X173.421 Y144.804 E16.15732
G1 X173.305 Y145.689 E16.17092
G1 X173.421 Y146.574 E16.18452
G1 X173.764 Y147.398 E16.19812
G1 X174.161 Y147.918 E16.20809
G1 X174.306 Y148.108 E16.21173
G1 X174.465 Y148.23 E16.21478
G1 X174.306 Y148.23 E16.21505
G1 X174.067 Y148.23 E16.21762
G1 X39.387 Y148.23 E18.26968
G1 X39.262 Y148.23 E18.27158
G1 X38.956 Y148.23 E18.27625
G1 X39.262 Y147.995 E18.27876
G1 X39.338 Y147.896 E18.28036
G1 X39.805 Y147.287 E18.29206
G1 X40.148 Y146.462 E18.30567
G1 X40.263 Y145.576 E18.31928
G1 X40.148 Y144.691 E18.33288
G1 X39.805 Y143.865 E18.34651
G1 X39.262 Y143.157 E18.3601
G1 X38.554 Y142.615 E18.37369
G1 X37.729 Y142.272 E18.3873
G1 X36.843 Y142.156 E18.40092
G1 X35.958 Y142.272 E18.41452
G1 X35.134 Y142.615 E18.42812
G1 X34.424 Y143.157 E18.44173
M204 S625
M205 X6 Y6
G0 F7500 X34.681 Y143.414
M204 S500
M205 X5 Y5
G1 F1800 X34.196 Y144.048 E18.45389
G1 X33.89 Y144.785 E18.46605
G1 X33.786 Y145.576 E18.4782
G1 X33.89 Y146.368 E18.49037
G1 X34.196 Y147.105 E18.50253
G1 X34.681 Y147.738 E18.51468
G1 X35.314 Y148.224 E18.52684
G1 X35.359 Y148.243 E18.52759
G1 X36.052 Y148.53 E18.53902
G1 X36.513 Y148.59 E18.5461
G1 X36.052 Y148.59 E18.54668
G1 X35.302 Y148.59 E18.55344
G1 X33.259 Y148.59 E18.58457
G1 X10.643 Y140.999 E18.94805
G1 X10.643 Y73.156 E19.98174
G1 X33.255 Y65.75 E20.34428
G1 X35.126 Y65.75 E20.37279
G1 X35.295 Y65.75 E20.37536
G1 X35.883 Y65.75 E20.38432
G1 X35.295 Y65.994 E20.38798
G1 X35.161 Y66.096 E20.39015
G1 X34.662 Y66.48 E20.39975
G1 X34.176 Y67.113 E20.41191
G1 X33.871 Y67.85 E20.42406
G1 X33.767 Y68.642 E20.43623
G1 X33.871 Y69.433 E20.44839
G1 X34.175 Y70.17 E20.46053
G1 X34.662 Y70.804 E20.47271
G1 X35.296 Y71.289 E20.48488
G1 X36.033 Y71.595 E20.49703
G1 X36.824 Y71.699 E20.50919
G1 X37.615 Y71.595 E20.52135
G1 X38.352 Y71.289 E20.53351
G1 X38.986 Y70.804 E20.54567
G1 X39.471 Y70.17 E20.55783
G1 X39.777 Y69.433 E20.56999
G1 X39.881 Y68.642 E20.58214
G1 X39.777 Y67.85 E20.59432
G1 X39.471 Y67.113 E20.60647
G1 X38.986 Y66.48 E20.61862
G1 X38.487 Y66.096 E20.62822
G1 X38.353 Y65.994 E20.63078
G1 X37.765 Y65.75 E20.64048
G1 X38.353 Y65.75 E20.6434
G1 X38.522 Y65.75 E20.64559
G1 X175.018 Y65.75 E22.72532
G1 X175.313 Y65.75 E22.72981
G1 X175.694 Y65.75 E22.73562
G1 X175.313 Y65.908 E22.73727
G1 X175.079 Y66.087 E22.74057
G1 X174.68 Y66.394 E22.74824
G1 X174.195 Y67.027 E22.76039
G1 X173.889 Y67.764 E22.77255
G1 X173.785 Y68.556 E22.78472
G1 X173.889 Y69.347 E22.79688
G1 X174.195 Y70.084 E22.80903
G1 X174.68 Y70.718 E22.8212
G1 X175.314 Y71.203 E22.83336
G1 X176.051 Y71.509 E22.84552
G1 X176.842 Y71.613 E22.85767
G1 X177.634 Y71.509 E22.86985
G1 X178.371 Y71.203 E22.882
G1 X179.004 Y70.718 E22.89415
G1 X179.49 Y70.085 E22.90631
G1 X179.796 Y69.347 E22.91849
G1 X179.899 Y68.556 E22.93064
G1 X179.796 Y67.764 E22.94281
G1 X179.49 Y67.027 E22.95497
G1 X179.004 Y66.394 E22.96713
G1 X178.605 Y66.087 E22.9748
G1 X178.371 Y65.908 E22.97929
G1 X177.99 Y65.75 E22.98557
G1 X178.371 Y65.75 E22.98675
G1 X178.666 Y65.75 E22.99006
G1 X180.995 Y65.75 E23.02554
G1 X203.043 Y73.151 E23.3799
G1 X203.043 Y141.003 E24.41373
G1 X202.8 Y141.086 E24.41764
G1 X180.992 Y148.59 E24.76904
G1 X178.41 Y148.59 E24.80838
G1 X178.254 Y148.59 E24.81076
G1 X177.643 Y148.59 E24.82007
G1 X178.254 Y148.337 E24.82399
G1 X178.377 Y148.242 E24.82603
G1 X178.887 Y147.851 E24.83582
G1 X179.373 Y147.218 E24.84798
G1 X179.679 Y146.48 E24.86015
G1 X179.782 Y145.689 E24.87231
G1 X179.679 Y144.898 E24.88446
G1 X179.373 Y144.16 E24.89663
G1 X178.887 Y143.527 E24.90879
G1 X178.254 Y143.042 E24.92094
G1 X177.517 Y142.736 E24.9331
G1 X176.725 Y142.632 E24.94527
G1 X175.934 Y142.736 E24.95743
G1 X175.197 Y143.042 E24.96959
G1 X174.563 Y143.527 E24.98175
G1 X174.078 Y144.161 E24.99391
G1 X173.772 Y144.898 E25.00607
G1 X173.668 Y145.689 E25.01823
G1 X173.772 Y146.48 E25.03038
G1 X174.078 Y147.217 E25.04254
G1 X174.563 Y147.851 E25.0547
G1 X175.073 Y148.243 E25.0645
G1 X175.197 Y148.338 E25.06688
G1 X175.808 Y148.59 E25.07695
G1 X175.197 Y148.59 E25.0801
G1 X175.04 Y148.59 E25.08215
G1 X38.384 Y148.59 E27.16432
G1 X37.635 Y148.59 E27.17573
G1 X37.174 Y148.59 E27.18276
G1 X37.635 Y148.53 E27.18338
G1 X38.326 Y148.243 E27.19013
G1 X38.372 Y148.224 E27.19088
G1 X39.005 Y147.738 E27.20304
G1 X39.491 Y147.105 E27.2152
G1 X39.797 Y146.368 E27.22736
G1 X39.9 Y145.576 E27.23953
G1 X39.797 Y144.785 E27.25168
G1 X39.491 Y144.047 E27.26386
G1 X39.005 Y143.414 E27.27602
G1 X38.372 Y142.929 E27.28817
G1 X37.635 Y142.623 E27.30033
G1 X36.843 Y142.519 E27.3125
G1 X36.052 Y142.623 E27.32465
G1 X35.315 Y142.929 E27.33681
G1 X34.681 Y143.414 E27.34897
M204 S625
M205 X6 Y6
G0 F7500 X34.959 Y143.692
M204 S500
M205 X5 Y5
;TYPE:WALL-OUTER
G1 F1800 X34.537 Y144.244 E27.36133
G1 X34.27 Y144.887 E27.3737
G1 X34.179 Y145.576 E27.38606
G1 X34.27 Y146.266 E27.39843
G1 X34.537 Y146.908 E27.41079
G1 X34.959 Y147.46 E27.42314
G1 X35.511 Y147.883 E27.4355
G1 X36.154 Y148.15 E27.44788
G1 X36.843 Y148.24 E27.46023
G1 X37.533 Y148.15 E27.4726
G1 X38.175 Y147.883 E27.48496
G1 X38.727 Y147.46 E27.49732
G1 X39.15 Y146.908 E27.50968
G1 X39.417 Y146.266 E27.52204
G1 X39.507 Y145.576 E27.53441
G1 X39.417 Y144.887 E27.54676
G1 X39.15 Y144.244 E27.55914
G1 X38.727 Y143.692 E27.5715
G1 X38.175 Y143.27 E27.58385
G1 X37.533 Y143.003 E27.59621
G1 X36.843 Y142.912 E27.60858
G1 X36.154 Y143.003 E27.62094
G1 X35.511 Y143.27 E27.63331
G1 X34.959 Y143.692 E27.64566
M204 S625
M205 X6 Y6
G0 F7500 X34.838 Y143.851
G0 X34.471 Y143.57
G0 X38.977 Y70.732
G0 X38.708 Y70.526
M204 S500
M205 X5 Y5
G1 F1800 X39.13 Y69.974 E27.65802
G1 X39.397 Y69.331 E27.67039
G1 X39.488 Y68.642 E27.68275
G1 X39.397 Y67.952 E27.69512
G1 X39.13 Y67.31 E27.70748
G1 X38.708 Y66.758 E27.71983
G1 X38.156 Y66.335 E27.73219
G1 X37.513 Y66.068 E27.74457
G1 X36.824 Y65.978 E27.75692
G1 X36.135 Y66.068 E27.76927
G1 X35.492 Y66.335 E27.78165
G1 X34.94 Y66.758 E27.79401
G1 X34.517 Y67.31 E27.80637
G1 X34.251 Y67.952 E27.81872
G1 X34.16 Y68.642 E27.8311
G1 X34.251 Y69.331 E27.84345
G1 X34.516 Y69.974 E27.85581
G1 X34.94 Y70.526 E27.86818
G1 X35.492 Y70.948 E27.88054
G1 X36.135 Y71.215 E27.89291
G1 X36.824 Y71.306 E27.90527
G1 X37.513 Y71.215 E27.91762
G1 X38.156 Y70.948 E27.93
G1 X38.708 Y70.526 E27.94235
M204 S625
M205 X6 Y6
G0 F7500 X38.829 Y70.367
G0 X39.196 Y70.648
G0 X84.153 Y81.521
M204 S500
M205 X5 Y5
;TYPE:WALL-INNER
G1 F1800 X84.258 Y82.262 E27.95375
G1 X84.546 Y82.952 E27.96514
G1 X85.006 Y83.544 E27.97657
G1 X85.602 Y83.997 E27.98797
G1 X86.296 Y84.278 E27.99938
G1 X87.04 Y84.374 E28.01081
G1 X87.781 Y84.269 E28.02221
G1 X88.471 Y83.981 E28.03361
G1 X89.063 Y83.521 E28.04503
G1 X89.514 Y82.926 E28.0564
G1 X89.796 Y82.244 E28.06765
G1 X89.892 Y81.487 E28.07928
G1 X89.788 Y80.746 E28.09068
G1 X89.5 Y80.056 E28.10207
G1 X89.04 Y79.464 E28.11349
G1 X88.444 Y79.011 E28.1249
G1 X87.75 Y78.73 E28.13631
G1 X87.006 Y78.634 E28.14774
G1 X86.265 Y78.739 E28.15914
G1 X85.575 Y79.027 E28.17053
G1 X84.983 Y79.487 E28.18195
G1 X84.53 Y80.083 E28.19336
G1 X84.249 Y80.777 E28.20477
G1 X84.153 Y81.521 E28.2162
M204 S625
M205 X6 Y6
G0 F7500 X84.516 Y81.519
M204 S500
M205 X5 Y5
G1 F1800 X84.608 Y82.166 E28.22616
G1 X84.86 Y82.769 E28.23611
G1 X85.261 Y83.286 E28.24608
G1 X85.782 Y83.681 E28.25604
G1 X86.388 Y83.927 E28.26601
G1 X87.038 Y84.011 E28.276
G1 X87.685 Y83.919 E28.28595
G1 X88.288 Y83.667 E28.29591
G1 X88.805 Y83.266 E28.30588
G1 X89.199 Y82.746 E28.31582
G1 X89.445 Y82.151 E28.32563
G1 X89.529 Y81.489 E28.3358
G1 X89.438 Y80.842 E28.34575
G1 X89.186 Y80.239 E28.35571
G1 X88.785 Y79.722 E28.36568
G1 X88.264 Y79.327 E28.37564
G1 X87.658 Y79.081 E28.38561
G1 X87.008 Y78.997 E28.39559
G1 X86.361 Y79.089 E28.40555
G1 X85.758 Y79.341 E28.41551
G1 X85.241 Y79.742 E28.42548
G1 X84.846 Y80.263 E28.43544
G1 X84.6 Y80.869 E28.4454
G1 X84.516 Y81.519 E28.45539
M204 S625
M205 X6 Y6
G0 F7500 X84.91 Y81.516
M204 S500
M205 X5 Y5
;TYPE:WALL-OUTER
G1 F1800 X84.987 Y82.062 E28.46519
G1 X85.2 Y82.571 E28.475
G1 X85.538 Y83.006 E28.48479
G1 X85.977 Y83.339 E28.49459
G1 X86.488 Y83.547 E28.50439
G1 X87.035 Y83.617 E28.5142
G1 X87.581 Y83.54 E28.524
G1 X88.09 Y83.327 E28.53381
G1 X88.525 Y82.989 E28.5436
G1 X88.858 Y82.55 E28.55339
G1 X89.065 Y82.05 E28.56301
G1 X89.136 Y81.492 E28.57301
G1 X89.059 Y80.946 E28.58281
G1 X88.846 Y80.437 E28.59262
G1 X88.508 Y80.002 E28.60241
G1 X88.069 Y79.669 E28.61221
G1 X87.558 Y79.461 E28.62202
G1 X87.011 Y79.391 E28.63182
G1 X86.465 Y79.468 E28.64162
G1 X85.956 Y79.681 E28.65143
G1 X85.521 Y80.019 E28.66122
G1 X85.188 Y80.458 E28.67102
G1 X84.98 Y80.969 E28.68082
G1 X84.91 Y81.516 E28.69063
M204 S625
M205 X6 Y6
G0 F7500 X84.937 Y81.714
G0 X84.48 Y81.777
G0 X84.153 Y130.513
M204 S500
M205 X5 Y5
;TYPE:WALL-INNER
G1 F1800 X84.258 Y131.254 E28.70203
G1 X84.546 Y131.944 E28.71342
G1 X85.006 Y132.536 E28.72484
G1 X85.602 Y132.989 E28.73625
G1 X86.296 Y133.27 E28.74766
G1 X87.04 Y133.366 E28.75909
G1 X87.781 Y133.261 E28.77049
G1 X88.471 Y132.973 E28.78188
G1 X89.063 Y132.513 E28.79331
G1 X89.514 Y131.918 E28.80468
G1 X89.796 Y131.236 E28.81593
G1 X89.892 Y130.479 E28.82755
G1 X89.788 Y129.738 E28.83895
G1 X89.5 Y129.048 E28.85035
G1 X89.04 Y128.456 E28.86177
G1 X88.444 Y128.003 E28.87318
G1 X87.75 Y127.722 E28.88458
G1 X87.006 Y127.626 E28.89601
G1 X86.265 Y127.731 E28.90742
G1 X85.575 Y128.019 E28.91881
G1 X84.983 Y128.479 E28.93023
G1 X84.53 Y129.075 E28.94164
G1 X84.249 Y129.769 E28.95305
G1 X84.153 Y130.513 E28.96448
M204 S625
M205 X6 Y6
G0 F7500 X84.516 Y130.511
M204 S500
M205 X5 Y5
G1 F1800 X84.608 Y131.158 E28.97443
G1 X84.86 Y131.761 E28.98439
G1 X85.261 Y132.278 E28.99436
G1 X85.782 Y132.673 E29.00432
G1 X86.388 Y132.919 E29.01429
G1 X87.038 Y133.003 E29.02427
G1 X87.685 Y132.911 E29.03423
G1 X88.288 Y132.659 E29.04419
G1 X88.805 Y132.258 E29.05416
G1 X89.199 Y131.738 E29.0641
G1 X89.445 Y131.143 E29.07391
G1 X89.529 Y130.481 E29.08408
G1 X89.438 Y129.834 E29.09403
G1 X89.186 Y129.231 E29.10399
G1 X88.785 Y128.714 E29.11396
G1 X88.264 Y128.319 E29.12392
G1 X87.658 Y128.073 E29.13388
G1 X87.008 Y127.989 E29.14387
G1 X86.361 Y128.081 E29.15383
G1 X85.758 Y128.333 E29.16379
G1 X85.241 Y128.734 E29.17375
G1 X84.846 Y129.255 E29.18372
G1 X84.6 Y129.861 E29.19368
G1 X84.516 Y130.511 E29.20367
M204 S625
M205 X6 Y6
G0 F7500 X84.91 Y130.508
M204 S500
M205 X5 Y5
;TYPE:WALL-OUTER
G1 F1800 X84.987 Y131.054 E29.21347
G1 X85.2 Y131.563 E29.22328
G1 X85.538 Y131.998 E29.23307
G1 X85.977 Y132.331 E29.24286
G1 X86.488 Y132.539 E29.25267
G1 X87.035 Y132.609 E29.26247
